;Generated by Cura LulzBot Edition GCodeWriter Version: 3.6.25
;FLAVOR:Marlin
;TIME:10658
;Filament used: 5.42325m
;Layer height: 0.25
;Generated with Cura_SteamEngine 3.6.25-9
M82 ;absolute extrusion mode
;This G-Code has been generated specifically for the LulzBot Mini 2 with SE 0.5mm Tool Head
M73 P0                  ; clear GLCD progress bar
M75 					; Start GLCD Print Timer
G26 					; clear potential 'probe fail' condition
M107 					; disable fans
M420 S0                 ; disable leveling matrix
G90 					; absolute positioning
M82 					; set extruder to absolute mode
G92 E0 					; set extruder position to 0
M140 S60.0 ; start bed heating up
G28 					; home all axes
G0 X0 Y187 Z156 F200 			; move away from endstops
M117 Mini 2 Wiping...			; progress indicator message on LCD
M109 R140 	; soften filament before retraction
G1 E-15 F75 				; retract filament
M109 R140 	; wait for extruder to reach wiping temp
G1 X45 Y176 F11520 			; move above wiper pad
G1 Z0 F1200 				; push nozzle into wiper
G1 X45 Y178 Z-.5 F4000		; wiping
G1 X55 Y176 Z-.5 F4000		; wiping
G1 X45 Y177 Z0 F4000		; wiping
G1 X55 Y176 F4000		; wiping
G1 X45 Y178 F4000		; wiping
G1 X55 Y176 F4000		; wiping
G1 X45 Y178 F4000		; wiping
G1 X55 Y176 F4000		; wiping
G1 X60 Y178 F4000		; wiping
G1 X80 Y176 F4000		; wiping
G1 X60 Y178 F4000		; wiping
G1 X80 Y176 F4000		; wiping
G1 X60 Y178 F4000		; wiping
G1 X90 Y176 F4000		; wiping
G1 X80 Y178 F4000		; wiping
G1 X100 Y176 F4000		; wiping
G1 X80 Y178 F4000		; wiping
G1 X100 Y176 F4000		; wiping
G1 X80 Y178 F4000		; wiping
G1 X100 Y176 F4000		; wiping
G1 X110 Y178 F4000		; wiping
G1 X100 Y176 F4000		; wiping
G1 X110 Y178 F4000		; wiping
G1 X100 Y176 F4000		; wiping
G1 X110 Y178 F4000		; wiping
G1 X115 Y176 Z-0.5 F1000	; wiping
G1 Z10					; raise extruder
G28 X0 Y0				; home X and Y
M109 R140	; wait for extruder to reach probe temp
M204 S300				; set probing acceleration
G29					; start auto-leveling sequence
M420 S1                     ; enable leveling matrix
M425 Z			     		; use measured Z backlash for compensation
M425 Z F0		     		; turn off measured Z backlash compensation. (if activated in the quality settings, this command will automatically be ignored)
M204 S2000				; restore standard acceleration
G1 X5 Y15 Z10 F5000			; move up off last probe point
G4 S1					; pause
M400					; wait for moves to finish
M117 Heating...				; progress indicator message on LCD
M109 R210 ; wait for extruder to reach initial printing temp
M190 R60.0 ; wait for bed to reach printing temp
G1 Z2 E0 F75				; prime tiny bit of filment into the nozzle
M117 Mini 2 Printing...		; progress indicator message on LCD

M221 S100 T0
G92 E0
G1 F600 E-1.75
;LAYER_COUNT:60
;LAYER:0
M425 F1.0
M107
G0 F2625 X47.983 Y24.901 Z0.425
;TYPE:SKIRT
G1 F600 E0
G1 F900 X48.137 Y24.611 E0.01094
G1 X49.181 Y22.871 E0.07853
G1 X49.363 Y22.6 E0.0894
G1 X50.567 Y20.986 E0.15648
G1 X50.79 Y20.718 E0.16809
G1 X52.325 Y19.064 E0.24326
G1 X52.56 Y18.835 E0.25419
G1 X53.878 Y17.675 E0.31267
G1 X54.116 Y17.485 E0.32282
G1 X55.747 Y16.301 E0.38995
G1 X56.023 Y16.121 E0.40093
G1 X57.794 Y15.092 E0.46916
G1 X58.092 Y14.939 E0.48031
G1 X59.968 Y14.094 E0.54885
G1 X60.275 Y13.974 E0.55983
G1 X62.174 Y13.341 E0.62651
G1 X62.425 Y13.268 E0.63522
G1 X63.636 Y12.97 E0.67676
G1 X63.883 Y12.92 E0.68515
G1 X65.686 Y12.622 E0.74603
G1 X65.999 Y12.585 E0.75652
G1 X68.019 Y12.45 E0.82396
G1 X68.344 Y12.445 E0.83479
G1 X70.325 Y12.511 E0.90081
G1 X70.649 Y12.538 E0.91164
G1 X72.671 Y12.809 E0.9796
G1 X72.941 Y12.857 E0.98873
G1 X74.224 Y13.141 E1.03251
G1 X74.44 Y13.196 E1.03993
G1 X78.244 Y14.317 E1.17203
G1 X83.584 Y15.665 E1.35549
G1 X86.276 Y16.226 E1.44709
G1 X88.916 Y16.696 E1.53641
G1 X94.373 Y17.433 E1.71983
G1 X99.822 Y17.857 E1.90189
G1 X105.286 Y17.972 E2.08394
G1 X110.764 Y17.778 E2.26653
G1 X116.219 Y17.275 E2.44901
G1 X118.913 Y16.91 E2.53956
G1 X125.647 Y15.728 E2.7673
G1 X126.015 Y15.685 E2.77965
G1 X128.729 Y15.523 E2.87021
G1 X129.137 Y15.524 E2.8838
G1 X132.923 Y15.774 E3.01019
G1 X133.363 Y15.833 E3.02498
G1 X136.013 Y16.377 E3.11509
G1 X136.407 Y16.485 E3.1287
G1 X140.065 Y17.731 E3.25742
G1 X140.487 Y17.909 E3.27268
G1 X143.302 Y19.337 E3.37782
G1 X143.652 Y19.542 E3.39133
G1 X146.062 Y21.171 E3.48823
G1 X146.392 Y21.426 E3.50212
G1 X149.151 Y23.859 E3.62466
G1 X149.471 Y24.185 E3.63987
G1 X151.603 Y26.678 E3.74914
G1 X151.857 Y27.018 E3.76328
G1 X153.634 Y29.75 E3.87184
G1 X153.843 Y30.123 E3.88608
G1 X155.259 Y33.091 E3.99562
G1 X155.417 Y33.485 E4.00976
G1 X156.422 Y36.576 E4.11803
G1 X156.522 Y36.965 E4.13141
G1 X157.053 Y39.717 E4.22477
G1 X157.106 Y40.128 E4.23857
G1 X157.344 Y43.894 E4.36427
G1 X157.34 Y44.354 E4.37959
G1 X157.087 Y47.571 E4.48708
G1 X157.03 Y47.971 E4.50054
G1 X156.451 Y50.786 E4.59627
G1 X156.35 Y51.163 E4.60928
G1 X155.343 Y54.171 E4.71494
G1 X155.185 Y54.558 E4.72886
G1 X153.697 Y57.624 E4.84238
G1 X153.607 Y57.796 E4.84885
G1 X152.843 Y59.157 E4.90084
G1 X149.607 Y65.389 E5.13475
G1 X147.401 Y70.406 E5.31731
G1 X146.403 Y72.963 E5.40874
G1 X145.504 Y75.483 E5.49786
G1 X143.869 Y80.748 E5.68151
G1 X142.544 Y86.059 E5.86384
G1 X141.987 Y88.774 E5.95616
G1 X141.529 Y91.39 E6.04463
G1 X140.808 Y96.849 E6.22805
G1 X140.398 Y102.316 E6.41067
G1 X140.299 Y107.778 E6.59264
G1 X140.468 Y112.785 E6.75952
G1 X140.47 Y112.904 E6.76348
G1 X140.457 Y117.578 E6.91917
G1 X140.407 Y118.135 E6.9378
G1 X139.696 Y122.159 E7.07392
G1 X138.956 Y127.97 E7.26905
G1 X138.852 Y128.469 E7.28603
G1 X138.672 Y128.946 E7.30301
G1 X138.419 Y129.388 E7.31998
G1 X138.1 Y129.786 E7.33697
G1 X137.723 Y130.128 E7.35392
G1 X137.297 Y130.408 E7.3709
G1 X136.833 Y130.618 E7.38787
G1 X136.342 Y130.752 E7.40482
G1 X135.73 Y130.81 E7.4253
G1 X133.748 Y130.809 E7.49132
G1 X133.551 Y130.803 E7.49789
G1 X129.454 Y130.552 E7.63461
G1 X123.953 Y130.473 E7.81787
G1 X118.494 Y130.704 E7.99988
G1 X113.054 Y131.244 E8.18198
G1 X107.622 Y132.094 E8.36512
G1 X104.96 Y132.627 E8.45555
G1 X102.332 Y133.231 E8.54537
G1 X96.969 Y134.707 E8.73066
G1 X93.002 Y135.967 E8.86931
G1 X92.795 Y136.026 E8.87648
G1 X91.564 Y136.329 E8.91871
G1 X91.312 Y136.38 E8.92727
G1 X89.528 Y136.672 E8.98749
G1 X89.221 Y136.708 E8.99778
G1 X87.202 Y136.844 E9.06519
G1 X87.019 Y136.851 E9.07129
G1 X80.46 Y136.922 E9.28978
G1 X75.01 Y137.309 E9.47178
G1 X69.568 Y138.006 E9.65454
G1 X64.201 Y139.004 E9.83638
G1 X61.551 Y139.614 E9.92696
G1 X56.255 Y141.073 E10.10994
G1 X51.07 Y142.822 E10.29222
G1 X48.502 Y143.812 E10.3839
G1 X44.476 Y145.407 E10.52815
G1 X44.287 Y145.475 E10.53484
G1 X42.178 Y146.163 E10.60873
G1 X41.765 Y146.268 E10.62293
G1 X38.509 Y146.874 E10.73325
G1 X38.081 Y146.925 E10.74761
G1 X34.805 Y147.094 E10.85688
G1 X34.382 Y147.088 E10.87097
G1 X31.13 Y146.831 E10.97963
G1 X30.713 Y146.771 E10.99366
G1 X27.561 Y146.104 E11.10098
G1 X27.144 Y145.986 E11.11542
G1 X23.991 Y144.864 E11.2269
G1 X23.614 Y144.702 E11.24057
G1 X20.812 Y143.285 E11.34516
G1 X20.457 Y143.076 E11.35888
G1 X19.219 Y142.238 E11.40868
G1 X19.182 Y142.213 E11.41017
G1 X17.622 Y141.125 E11.47352
G1 X17.311 Y140.879 E11.48673
G1 X14.951 Y138.763 E11.59231
G1 X14.652 Y138.456 E11.60659
G1 X12.488 Y135.927 E11.71746
G1 X12.243 Y135.601 E11.73104
G1 X10.651 Y133.183 E11.82748
G1 X10.442 Y132.817 E11.84152
G1 X8.844 Y129.531 E11.96323
G1 X8.683 Y129.135 E11.97747
G1 X7.788 Y126.441 E12.07203
G1 X7.688 Y126.066 E12.08496
G1 X7.059 Y122.984 E12.18974
G1 X7 Y122.547 E12.20443
G1 X6.75 Y118.744 E12.33138
G1 X6.753 Y118.277 E12.34694
G1 X7.007 Y115.037 E12.45519
G1 X7.063 Y114.637 E12.46865
G1 X7.644 Y111.809 E12.56482
G1 X7.747 Y111.429 E12.57793
G1 X8.746 Y108.451 E12.68256
G1 X8.902 Y108.068 E12.69634
G1 X10.393 Y104.99 E12.81026
G1 X10.625 Y104.587 E12.82575
G1 X12.67 Y101.561 E12.94741
G1 X12.934 Y101.222 E12.96172
G1 X14.812 Y99.109 E13.05589
G1 X14.929 Y98.983 E13.06162
G1 X19.758 Y94.097 E13.29045
G1 X23.372 Y89.972 E13.47313
G1 X25.052 Y87.88 E13.5625
G1 X28.307 Y83.459 E13.74538
G1 X31.301 Y78.869 E13.92792
G1 X34.026 Y74.126 E14.11013
G1 X36.475 Y69.243 E14.2921
G1 X38.665 Y64.182 E14.47579
G1 X39.64 Y61.64 E14.56648
G1 X40.533 Y59.088 E14.65654
G1 X42.128 Y53.845 E14.83909
G1 X43.43 Y48.491 E15.02263
G1 X43.959 Y45.834 E15.11287
G1 X44.411 Y43.151 E15.2035
G1 X45.098 Y37.707 E15.38628
G1 X45.512 Y32.774 E15.55118
G1 X45.56 Y32.428 E15.56282
G1 X46.008 Y30.115 E15.6413
G1 X46.113 Y29.715 E15.65507
G1 X46.976 Y27.099 E15.74683
G1 X47.121 Y26.735 E15.75988
G1 X47.983 Y24.901 E15.82739
G1 F600 E14.07739
;MESH:
G0 F2625 X50.233 Y26.154
G0 X51.52 Y26.785
G0 X70.371 Y39.591
G0 X70.378 Y39.69
;TYPE:WALL-INNER
G1 F600 E15.82739
G1 F900 X69.801 Y39.767 E15.84678
G1 X69.234 Y39.898 E15.86616
G1 X68.683 Y40.089 E15.88559
G1 X68.155 Y40.333 E15.90496
G1 X67.654 Y40.63 E15.92436
G1 X67.186 Y40.974 E15.94371
G1 X66.753 Y41.366 E15.96316
G1 X66.364 Y41.8 E15.98258
G1 X66.02 Y42.27 E16.00198
G1 X65.726 Y42.773 E16.02139
G1 X65.483 Y43.303 E16.04081
G1 X65.296 Y43.855 E16.06022
G1 X65.167 Y44.422 E16.07959
G1 X65.094 Y44.999 E16.09897
G1 X65.081 Y45.582 E16.11839
G1 X65.127 Y46.162 E16.13777
G1 X65.229 Y46.736 E16.15719
G1 X65.391 Y47.295 E16.17658
G1 X65.609 Y47.836 E16.19601
G1 X65.88 Y48.352 E16.21542
G1 X66.202 Y48.838 E16.23484
G1 X66.571 Y49.289 E16.25425
G1 X66.984 Y49.699 E16.27364
G1 X67.435 Y50.066 E16.293
G1 X67.923 Y50.385 E16.31242
G1 X68.439 Y50.654 E16.33181
G1 X68.981 Y50.869 E16.35123
G1 X69.541 Y51.028 E16.37062
G1 X70.115 Y51.129 E16.39004
G1 X70.695 Y51.172 E16.40941
G1 X71.279 Y51.157 E16.42887
G1 X71.857 Y51.08 E16.44829
G1 X72.423 Y50.949 E16.46764
G1 X72.973 Y50.758 E16.48704
G1 X73.504 Y50.514 E16.5065
G1 X74.004 Y50.217 E16.52588
G1 X74.471 Y49.873 E16.5452
G1 X74.903 Y49.482 E16.56461
G1 X75.294 Y49.047 E16.58409
G1 X75.638 Y48.576 E16.60352
G1 X75.931 Y48.075 E16.62285
G1 X76.174 Y47.544 E16.6423
G1 X76.362 Y46.992 E16.66173
G1 X76.491 Y46.425 E16.6811
G1 X76.563 Y45.848 E16.70047
G1 X76.576 Y45.265 E16.71989
G1 X76.532 Y44.685 E16.73927
G1 X76.427 Y44.111 E16.7587
G1 X76.266 Y43.552 E16.77808
G1 X76.048 Y43.011 E16.79751
G1 X75.778 Y42.496 E16.81688
G1 X75.456 Y42.009 E16.83633
G1 X75.087 Y41.559 E16.85571
G1 X74.674 Y41.148 E16.87512
G1 X74.222 Y40.781 E16.89451
G1 X73.734 Y40.462 E16.91393
G1 X73.218 Y40.193 E16.93332
G1 X72.676 Y39.978 E16.95274
G1 X72.116 Y39.819 E16.97213
G1 X71.542 Y39.718 E16.99155
G1 X70.962 Y39.675 E17.01092
G1 X70.378 Y39.69 E17.03038
G0 F2625 X70.371 Y39.591
G0 X71.546 Y39.679
G0 X72.688 Y39.941
G0 X73.754 Y40.428
G0 X74.7 Y41.119
G0 X75.488 Y41.986
G0 X76.084 Y42.995
G0 X76.465 Y44.102
G0 X76.615 Y45.264
G0 X74.918 Y69.521
G0 X73.943 Y70.168
G0 X73.114 Y70.998
G0 X72.472 Y71.978
G0 X72.039 Y73.069
G0 X71.837 Y74.22
G0 X71.868 Y75.391
G0 X72.136 Y76.532
G0 X72.627 Y77.594
G0 X73.323 Y78.538
G0 X74.194 Y79.321
G0 X75.205 Y79.913
G0 X76.315 Y80.29
G0 X78.067 Y80.48
G0 X78.06 Y80.381
G1 F900 X78.638 Y80.304 E17.0498
G1 X79.206 Y80.171 E17.06923
G1 X79.754 Y79.982 E17.08854
G1 X80.283 Y79.738 E17.10795
G1 X80.786 Y79.441 E17.12741
G1 X81.253 Y79.096 E17.14675
G1 X81.685 Y78.706 E17.16613
G1 X82.076 Y78.27 E17.18564
G1 X82.419 Y77.799 E17.20505
G1 X82.713 Y77.298 E17.2244
G1 X82.955 Y76.768 E17.24381
G1 X83.143 Y76.215 E17.26326
G1 X83.272 Y75.649 E17.2826
G1 X83.345 Y75.072 E17.30197
G1 X83.358 Y74.488 E17.32143
G1 X83.312 Y73.908 E17.34081
G1 X83.21 Y73.335 E17.3602
G1 X83.047 Y72.775 E17.37963
G1 X82.83 Y72.234 E17.39904
G1 X82.559 Y71.719 E17.41843
G1 X82.237 Y71.233 E17.43785
G1 X81.868 Y70.782 E17.45726
G1 X81.455 Y70.372 E17.47664
G1 X81.005 Y70.005 E17.49599
G1 X80.516 Y69.685 E17.51545
G1 X79.999 Y69.417 E17.53485
G1 X79.458 Y69.202 E17.55424
G1 X78.897 Y69.042 E17.57368
G1 X78.324 Y68.941 E17.59306
G1 X77.744 Y68.899 E17.61243
G1 X77.161 Y68.913 E17.63185
G1 X76.582 Y68.99 E17.65131
G1 X76.015 Y69.123 E17.67071
G1 X75.466 Y69.312 E17.69005
G1 X74.936 Y69.556 E17.70949
G1 X74.435 Y69.853 E17.72889
G1 X73.968 Y70.198 E17.74823
G1 X73.536 Y70.588 E17.76761
G1 X73.145 Y71.023 E17.7871
G1 X72.801 Y71.495 E17.80655
G1 X72.507 Y71.996 E17.8259
G1 X72.265 Y72.526 E17.84531
G1 X72.077 Y73.079 E17.86476
G1 X71.948 Y73.646 E17.88413
G1 X71.876 Y74.222 E17.90347
G1 X71.863 Y74.806 E17.92293
G1 X71.907 Y75.386 E17.9423
G1 X72.012 Y75.959 E17.96171
G1 X72.173 Y76.519 E17.98112
G1 X72.391 Y77.06 E18.00055
G1 X72.661 Y77.574 E18.01989
G1 X72.983 Y78.061 E18.03933
G1 X73.352 Y78.512 E18.05875
G1 X73.765 Y78.922 E18.07813
G1 X74.217 Y79.289 E18.09752
G1 X74.705 Y79.609 E18.11696
G1 X75.221 Y79.877 E18.13633
G1 X75.762 Y80.092 E18.15572
G1 X76.323 Y80.252 E18.17516
G1 X76.897 Y80.353 E18.19457
G1 X77.477 Y80.395 E18.21394
G1 X78.06 Y80.381 E18.23337
G0 F2625 X78.067 Y80.48
G0 X89.65 Y101.445
G0 X89.757 Y101.758
G0 X90.195 Y103.124
G0 X90.096 Y103.136
G1 F900 X89.991 Y102.562 E18.2528
G1 X89.831 Y102.002 E18.2722
G1 X89.614 Y101.461 E18.29162
G1 X89.343 Y100.946 E18.311
G1 X89.021 Y100.459 E18.33045
G1 X88.654 Y100.01 E18.34977
G1 X88.241 Y99.597 E18.36922
G1 X87.788 Y99.23 E18.38864
G1 X87.301 Y98.911 E18.40804
G1 X86.785 Y98.641 E18.42744
G1 X86.244 Y98.426 E18.44683
G1 X85.683 Y98.267 E18.46625
G1 X85.11 Y98.165 E18.48564
G1 X84.529 Y98.122 E18.50504
G1 X83.946 Y98.137 E18.52447
G1 X83.37 Y98.212 E18.54382
G1 X82.802 Y98.343 E18.56324
G1 X82.249 Y98.534 E18.58272
G1 X81.723 Y98.778 E18.60204
G1 X81.22 Y99.073 E18.62146
G1 X80.752 Y99.418 E18.64083
G1 X80.319 Y99.81 E18.66029
G1 X79.931 Y100.243 E18.67965
G1 X79.586 Y100.712 E18.69905
G1 X79.291 Y101.216 E18.7185
G1 X79.049 Y101.745 E18.73788
G1 X78.861 Y102.296 E18.75727
G1 X78.73 Y102.863 E18.77666
G1 X78.657 Y103.442 E18.7961
G1 X78.644 Y104.025 E18.81552
G1 X78.688 Y104.605 E18.8349
G1 X78.791 Y105.179 E18.85432
G1 X78.954 Y105.739 E18.87375
G1 X79.169 Y106.28 E18.89314
G1 X79.441 Y106.796 E18.91257
G1 X79.763 Y107.282 E18.93199
G1 X80.13 Y107.731 E18.95131
G1 X80.543 Y108.144 E18.97076
G1 X80.995 Y108.511 E18.99016
G1 X81.482 Y108.83 E19.00955
G1 X81.998 Y109.1 E19.02895
G1 X82.541 Y109.315 E19.0484
G1 X83.101 Y109.474 E19.06779
G1 X83.673 Y109.576 E19.08715
G1 X84.254 Y109.619 E19.10655
G1 X84.837 Y109.604 E19.12598
G1 X85.414 Y109.529 E19.14536
G1 X85.981 Y109.398 E19.16475
G1 X86.535 Y109.207 E19.18427
G1 X87.062 Y108.963 E19.20361
G1 X87.563 Y108.668 E19.22298
G1 X88.032 Y108.323 E19.24237
G1 X88.464 Y107.931 E19.2618
G1 X88.853 Y107.498 E19.28119
G1 X89.198 Y107.029 E19.30059
G1 X89.493 Y106.524 E19.32007
G1 X89.735 Y105.997 E19.33939
G1 X89.924 Y105.445 E19.35882
G1 X90.053 Y104.877 E19.37822
G1 X90.126 Y104.299 E19.39763
G1 X90.139 Y103.718 E19.41699
G1 X90.096 Y103.136 E19.43643
G0 F2625 X90.195 Y103.124
G0 X97.978 Y129.055
G0 X98.037 Y129.135
G1 F900 X97.245 Y129.686 E19.46856
G1 X96.434 Y130.191 E19.50039
G1 X95.559 Y130.677 E19.53373
G1 X94.686 Y131.105 E19.56612
G1 X93.798 Y131.486 E19.5983
G1 X92.88 Y131.826 E19.63091
G1 X91.939 Y132.121 E19.66376
G1 X91.011 Y132.361 E19.69569
G1 X90.036 Y132.561 E19.72884
G1 X89.087 Y132.707 E19.76083
G1 X88.116 Y132.806 E19.79334
G1 X87.141 Y132.855 E19.82586
G1 X86.164 Y132.855 E19.8584
G1 X85.189 Y132.806 E19.89092
G1 X84.218 Y132.707 E19.92343
G1 X83.269 Y132.561 E19.95542
G1 X82.293 Y132.361 E19.9886
G1 X81.359 Y132.119 E20.02074
G1 X80.43 Y131.829 E20.05316
G1 X79.506 Y131.486 E20.08599
G1 X78.619 Y131.105 E20.11815
G1 X77.745 Y130.677 E20.15056
G1 X76.87 Y130.191 E20.18391
G1 X76.06 Y129.686 E20.2157
G1 X75.268 Y129.135 E20.24784
G1 X74.5 Y128.539 E20.28022
G1 X73.734 Y127.882 E20.31384
G1 X73.036 Y127.219 E20.3459
G1 X72.371 Y126.518 E20.37809
G1 X71.736 Y125.78 E20.41052
G1 X71.126 Y124.99 E20.44377
G1 X70.568 Y124.189 E20.47629
G1 X70.066 Y123.383 E20.50792
G1 X69.587 Y122.519 E20.54082
G1 X69.166 Y121.661 E20.57266
G1 X68.772 Y120.743 E20.60593
G1 X68.434 Y119.831 E20.63833
G1 X68.143 Y118.9 E20.67082
G1 X67.898 Y117.951 E20.70347
G1 X49.82 Y40.045 E23.3675
G1 X49.617 Y39.06 E23.401
G1 X49.471 Y38.108 E23.43308
G1 X49.373 Y37.141 E23.46546
G1 X49.325 Y36.176 E23.49764
G1 X49.325 Y35.189 E23.53052
G1 X49.373 Y34.224 E23.56271
G1 X49.471 Y33.257 E23.59508
