;Generated by Cura LulzBot Edition GCodeWriter Version: 3.6.25
;FLAVOR:Marlin
;TIME:3387
;Filament used: 1.25375m
;Layer height: 0.25
;Generated with Cura_SteamEngine 3.6.25-9
M82 ;absolute extrusion mode
;This G-Code has been generated specifically for the LulzBot Mini 2 with SE 0.5mm Tool Head
M73 P0                  ; clear GLCD progress bar
M75 					; Start GLCD Print Timer
G26 					; clear potential 'probe fail' condition
M107 					; disable fans
M420 S0                 ; disable leveling matrix
G90 					; absolute positioning
M82 					; set extruder to absolute mode
G92 E0 					; set extruder position to 0
M140 S60.0 ; start bed heating up
G28 					; home all axes
G0 X0 Y187 Z156 F200 			; move away from endstops
M117 Mini 2 Wiping...			; progress indicator message on LCD
M109 R140 	; soften filament before retraction
G1 E-15 F75 				; retract filament
M109 R140 	; wait for extruder to reach wiping temp
G1 X45 Y176 F11520 			; move above wiper pad
G1 Z0 F1200 				; push nozzle into wiper
G1 X45 Y178 Z-.5 F4000		; wiping
G1 X55 Y176 Z-.5 F4000		; wiping
G1 X45 Y177 Z0 F4000		; wiping
G1 X55 Y176 F4000		; wiping
G1 X45 Y178 F4000		; wiping
G1 X55 Y176 F4000		; wiping
G1 X45 Y178 F4000		; wiping
G1 X55 Y176 F4000		; wiping
G1 X60 Y178 F4000		; wiping
G1 X80 Y176 F4000		; wiping
G1 X60 Y178 F4000		; wiping
G1 X80 Y176 F4000		; wiping
G1 X60 Y178 F4000		; wiping
G1 X90 Y176 F4000		; wiping
G1 X80 Y178 F4000		; wiping
G1 X100 Y176 F4000		; wiping
G1 X80 Y178 F4000		; wiping
G1 X100 Y176 F4000		; wiping
G1 X80 Y178 F4000		; wiping
G1 X100 Y176 F4000		; wiping
G1 X110 Y178 F4000		; wiping
G1 X100 Y176 F4000		; wiping
G1 X110 Y178 F4000		; wiping
G1 X100 Y176 F4000		; wiping
G1 X110 Y178 F4000		; wiping
G1 X115 Y176 Z-0.5 F1000	; wiping
G1 Z10					; raise extruder
G28 X0 Y0				; home X and Y
M109 R140	; wait for extruder to reach probe temp
M204 S300				; set probing acceleration
G29					; start auto-leveling sequence
M420 S1                     ; enable leveling matrix
M425 Z			     		; use measured Z backlash for compensation
M425 Z F0		     		; turn off measured Z backlash compensation. (if activated in the quality settings, this command will automatically be ignored)
M204 S2000				; restore standard acceleration
G1 X5 Y15 Z10 F5000			; move up off last probe point
G4 S1					; pause
M400					; wait for moves to finish
M117 Heating...				; progress indicator message on LCD
M109 R210 ; wait for extruder to reach initial printing temp
M190 R60.0 ; wait for bed to reach printing temp
G1 Z2 E0 F75				; prime tiny bit of filment into the nozzle
M117 Mini 2 Printing...		; progress indicator message on LCD

M221 S100 T0
G92 E0
G1 F600 E-1.75
;LAYER_COUNT:60
;LAYER:0
M425 F1.0
M107
G0 F2625 X51.892 Y51.239 Z0.425
;TYPE:SKIRT
G1 F600 E0
G1 F900 X52.196 Y50.951 E0.01395
G1 X53.296 Y50.034 E0.06165
G1 X53.391 Y49.967 E0.06552
G1 X53.388 Y49.963 E0.06569
G1 X55.098 Y48.639 E0.13773
G1 X55.384 Y48.441 E0.14932
G1 X57.806 Y46.95 E0.24406
G1 X58.149 Y46.767 E0.25701
G1 X60.749 Y45.568 E0.35238
G1 X61.147 Y45.415 E0.36658
G1 X64.724 Y44.305 E0.49134
G1 X65.142 Y44.205 E0.50566
G1 X67.937 Y43.73 E0.60009
G1 X68.357 Y43.686 E0.61416
G1 X72.009 Y43.545 E0.7359
G1 X72.437 Y43.557 E0.75016
G1 X75.418 Y43.836 E0.84989
G1 X75.823 Y43.9 E0.86355
G1 X78.48 Y44.493 E0.95424
G1 X78.707 Y44.552 E0.96205
G1 X80.099 Y44.97 E1.01046
G1 X80.367 Y45.064 E1.01992
G1 X83.162 Y46.178 E1.12015
G1 X83.505 Y46.338 E1.13275
G1 X86.069 Y47.725 E1.22986
G1 X86.411 Y47.939 E1.2433
G1 X88.929 Y49.736 E1.34634
G1 X89.244 Y49.991 E1.35984
G1 X91.477 Y52.049 E1.46099
G1 X91.774 Y52.362 E1.47537
G1 X94.09 Y55.15 E1.5961
G1 X94.347 Y55.506 E1.61073
G1 X97.083 Y59.89 E1.78286
G1 X100.151 Y64.469 E1.96646
G1 X103.445 Y68.829 E2.14849
G1 X106.988 Y73.004 E2.33088
G1 X110.775 Y76.99 E2.51403
G1 X112.692 Y78.843 E2.60284
G1 X116.83 Y82.516 E2.78715
G1 X121.119 Y85.908 E2.96929
G1 X125.099 Y88.739 E3.13199
G1 X125.489 Y89.065 E3.14892
G1 X125.736 Y89.336 E3.16113
G1 X127.603 Y91.631 E3.25968
G1 X127.893 Y92.05 E3.27666
G1 X128.073 Y92.411 E3.29009
G1 X128.311 Y92.971 E3.31036
G1 X128.473 Y93.454 E3.32733
G1 X128.532 Y93.744 E3.33719
G1 X128.946 Y96.412 E3.42712
G1 X128.984 Y96.92 E3.44409
G1 X128.962 Y97.288 E3.45637
G1 X128.879 Y97.996 E3.48012
G1 X128.78 Y98.496 E3.4971
G1 X128.66 Y98.845 E3.50939
G1 X127.529 Y101.618 E3.60915
G1 X127.301 Y102.074 E3.62613
G1 X127.003 Y102.488 E3.64312
G1 X126.597 Y102.891 E3.66218
G1 X124.273 Y104.822 E3.76283
G1 X124.085 Y104.967 E3.77073
G1 X118.628 Y108.865 E3.99412
G1 X114.393 Y112.3 E4.17576
G1 X110.343 Y115.983 E4.35811
G1 X106.514 Y119.884 E4.54019
G1 X102.737 Y124.187 E4.73091
G1 X102.33 Y124.577 E4.74968
G1 X99.919 Y126.514 E4.8527
G1 X99.498 Y126.801 E4.86968
G1 X98.929 Y127.057 E4.89046
G1 X98.473 Y127.212 E4.9065
G1 X97.909 Y127.349 E4.92584
G1 X95.061 Y127.776 E5.02176
G1 X94.553 Y127.812 E5.03873
G1 X94.074 Y127.773 E5.05474
G1 X93.699 Y127.714 E5.06738
G1 X92.986 Y127.516 E5.09203
G1 X90.085 Y126.343 E5.19626
G1 X89.629 Y126.116 E5.21323
G1 X89.214 Y125.82 E5.23021
G1 X88.798 Y125.4 E5.2499
G1 X86.732 Y122.9 E5.35793
G1 X86.66 Y122.811 E5.36175
G1 X83.641 Y118.883 E5.52677
G1 X80.077 Y114.739 E5.70884
G1 X76.286 Y110.805 E5.89083
G1 X72.245 Y107.059 E6.07437
G1 X70.204 Y105.323 E6.16362
G1 X65.858 Y101.933 E6.34722
G1 X61.382 Y98.83 E6.52865
G1 X56.354 Y95.747 E6.72511
G1 X56.162 Y95.619 E6.73279
G1 X53.574 Y93.768 E6.83878
G1 X53.238 Y93.492 E6.85327
G1 X50.733 Y91.136 E6.96782
G1 X50.459 Y90.844 E6.98115
G1 X48.678 Y88.697 E7.07408
G1 X48.428 Y88.352 E7.08827
G1 X46.431 Y85.177 E7.21321
G1 X46.217 Y84.777 E7.22832
G1 X44.886 Y81.81 E7.33664
G1 X44.741 Y81.423 E7.35041
G1 X43.816 Y78.371 E7.45664
G1 X43.722 Y77.972 E7.47029
G1 X43.222 Y75.027 E7.56979
G1 X43.179 Y74.627 E7.5832
G1 X43.042 Y71.532 E7.68639
G1 X43.049 Y71.128 E7.69985
G1 X43.306 Y67.922 E7.80699
G1 X43.372 Y67.482 E7.82181
G1 X44.186 Y63.79 E7.94774
G1 X44.312 Y63.362 E7.9626
G1 X45.333 Y60.603 E8.0606
G1 X45.507 Y60.214 E8.07479
G1 X47.191 Y57.024 E8.19495
G1 X47.412 Y56.663 E8.20905
G1 X49.049 Y54.35 E8.30344
G1 X49.317 Y54.02 E8.3176
G1 X51.892 Y51.239 E8.44385
G1 F600 E6.69385
G0 F2625 X53.639 Y53.165
G0 X53.668 Y53.197
G0 X69.444 Y70.576
G0 X69.474 Y70.608
G0 X70.252 Y71.464
;TYPE:SUPPORT
G1 F600 E8.44385
G1 F900 X71.57 Y70.749 E8.4938
G1 X72.284 Y72.067 E8.54373
G1 X70.966 Y72.781 E8.59366
G1 X70.252 Y71.464 E8.64356
G0 F2625 X70.596 Y71.681
G1 F900 X71.848 Y71.681 E8.68527
G0 F2625 X71.681 Y71.374
G1 F900 X71.681 Y72.167 E8.71168
G1 F600 E6.96168
G0 F2625 X72.289 Y73.338
G0 X72.308 Y73.377
G0 X83.212 Y94.381
G0 X83.249 Y94.452
G0 X92.143 Y111.585
G0 X92.18 Y111.656
G0 X94.38 Y115.896
G0 X94.4 Y115.935
G0 X94.979 Y117.047
G1 F600 E8.71168
G1 F900 X96.189 Y117.931 E8.7616
G1 X95.305 Y119.141 E8.81151
G1 X94.095 Y118.257 E8.86143
G1 X94.979 Y117.047 E8.91135
G0 F2625 X95.019 Y117.33
G1 F900 X95.019 Y118.684 E8.95645
G0 F2625 X94.569 Y118.357
G1 F900 X95.63 Y118.357 E8.99179
G1 F600 E7.24179
G0 F2625 X96.948 Y117.094
G0 X96.979 Y117.064
G0 X99.52 Y114.632
G0 X99.578 Y114.576
G0 X114.797 Y100.008
G0 X114.854 Y99.953
G0 X117.381 Y97.534
G0 X117.412 Y97.504
G0 X118.237 Y96.716
G1 F600 E8.99179
G1 F900 X119.121 Y95.507 E9.04168
G1 X120.33 Y96.39 E9.09155
G1 X119.446 Y97.6 E9.14147
G1 X118.237 Y96.716 E9.19136
G0 F2625 X118.534 Y96.686
G1 F900 X119.865 Y96.686 E9.23569
G1 F600 E7.48569
;MESH:
G0 F2625 X116.985 Y96.523
G0 X116.941 Y96.522
G0 X112.239 Y96.259
G0 X112.195 Y96.257
G0 X81.336 Y94.531
G0 X80.423 Y94.594
G0 X78.903 Y92.803
G0 X70.673 Y94.18
;TYPE:WALL-INNER
G1 F600 E9.23569
G1 F900 X69.478 Y94.099 E9.27559
G1 X68.93 Y94.048 E9.29392
G1 X67.731 Y93.907 E9.33414
G1 X66.585 Y93.675 E9.37308
G1 X66.029 Y93.549 E9.39207
G1 X64.902 Y93.264 E9.4308
G1 X63.76 Y92.876 E9.47097
G1 X63.237 Y92.682 E9.48955
G1 X62.123 Y92.237 E9.52951
G1 X61.057 Y91.709 E9.56914
G1 X60.581 Y91.457 E9.58708
G1 X59.562 Y90.89 E9.62592
G1 X58.551 Y90.212 E9.66647
G1 X58.107 Y89.898 E9.68459
G1 X57.141 Y89.178 E9.72472
G1 X56.244 Y88.387 E9.76456
G1 X55.839 Y88.012 E9.78294
G1 X55.018 Y87.215 E9.82106
G1 X54.21 Y86.293 E9.86189
G1 X53.85 Y85.859 E9.88068
G1 X53.113 Y84.923 E9.92036
G1 X52.46 Y83.942 E9.95962
G1 X52.162 Y83.47 E9.97821
G1 X51.557 Y82.453 E10.01763
G1 X51.026 Y81.372 E10.05775
G1 X50.798 Y80.876 E10.07593
G1 X50.321 Y79.765 E10.1162
G1 X49.95 Y78.659 E10.15506
G1 X49.783 Y78.12 E10.17386
G1 X49.464 Y76.992 E10.21291
G1 X49.23 Y75.805 E10.25321
G1 X49.137 Y75.262 E10.27156
G1 X48.966 Y74.088 E10.31108
G1 X48.892 Y72.907 E10.35049
G1 X48.87 Y72.343 E10.36929
G1 X48.853 Y71.16 E10.40871
G1 X48.934 Y69.981 E10.44807
G1 X48.984 Y69.434 E10.46637
G1 X49.125 Y68.238 E10.50648
G1 X49.358 Y67.082 E10.54576
G1 X49.481 Y66.538 E10.56434
G1 X49.773 Y65.383 E10.60403
G1 X50.157 Y64.258 E10.64362
G1 X50.351 Y63.734 E10.66224
G1 X50.792 Y62.63 E10.70184
G1 X51.321 Y61.56 E10.7416
G1 X51.572 Y61.083 E10.75955
G1 X52.157 Y60.036 E10.7995
G1 X52.817 Y59.054 E10.83891
G1 X53.135 Y58.604 E10.85727
G1 X53.853 Y57.642 E10.89725
G1 X54.647 Y56.741 E10.93726
G1 X55.008 Y56.35 E10.95498
G1 X55.848 Y55.489 E10.99505
G1 X56.736 Y54.711 E11.03438
G1 X57.159 Y54.359 E11.05271
G1 X58.11 Y53.61 E11.09303
G1 X59.085 Y52.961 E11.13205
G1 X59.553 Y52.666 E11.15048
G1 X60.584 Y52.051 E11.19046
G1 X61.643 Y51.532 E11.22975
G1 X62.156 Y51.297 E11.24854
G1 X63.237 Y50.831 E11.28776
G1 X64.368 Y50.449 E11.32752
G1 X64.907 Y50.282 E11.34632
G1 X66.032 Y49.962 E11.38528
G1 X67.228 Y49.727 E11.42588
G1 X67.753 Y49.637 E11.44362
G1 X68.947 Y49.464 E11.48381
G1 X70.126 Y49.39 E11.52316
G1 X70.69 Y49.368 E11.54196
G1 X71.885 Y49.351 E11.58177
G1 X73.059 Y49.432 E11.62097
G1 X73.606 Y49.482 E11.63927
G1 X74.784 Y49.621 E11.67878
G1 X75.951 Y49.855 E11.71843
G1 X76.507 Y49.981 E11.73742
G1 X77.653 Y50.271 E11.77679
G1 X78.782 Y50.658 E11.81655
G1 X79.293 Y50.847 E11.8347
G1 X80.409 Y51.29 E11.87469
G1 X81.468 Y51.817 E11.9141
G1 X81.961 Y52.076 E11.93265
G1 X83.026 Y52.674 E11.97333
G1 X83.979 Y53.314 E12.01157
G1 X84.44 Y53.641 E12.0304
G1 X85.383 Y54.342 E12.06954
G1 X86.287 Y55.14 E12.1097
G1 X86.683 Y55.505 E12.12764
G1 X87.551 Y56.35 E12.16799
G1 X88.329 Y57.243 E12.20745
G1 X88.674 Y57.656 E12.22537
G1 X89.424 Y58.608 E12.26574
G1 X90.072 Y59.582 E12.30471
G1 X90.367 Y60.05 E12.32314
G1 X90.979 Y61.077 E12.36296
G1 X91.501 Y62.14 E12.40241
G1 X91.736 Y62.653 E12.42121
G1 X92.203 Y63.734 E12.46043
G1 X92.584 Y64.865 E12.50019
G1 X92.751 Y65.404 E12.51898
G1 X93.071 Y66.536 E12.55817
G1 X93.303 Y67.706 E12.5979
G1 X93.396 Y68.251 E12.61631
G1 X93.569 Y69.425 E12.65584
G1 X93.644 Y70.617 E12.69563
G1 X93.665 Y71.169 E12.71403
G1 X93.682 Y72.377 E12.75427
G1 X93.602 Y73.549 E12.7934
G1 X93.552 Y74.097 E12.81173
G1 X93.41 Y75.302 E12.85215
G1 X93.178 Y76.448 E12.8911
G1 X93.055 Y76.992 E12.90968
G1 X92.763 Y78.147 E12.94936
G1 X92.379 Y79.269 E12.98886
G1 X92.186 Y79.792 E13.00743
G1 X91.75 Y80.891 E13.04681
G1 X91.22 Y81.959 E13.08653
G1 X90.957 Y82.459 E13.10535
G1 X90.379 Y83.491 E13.14475
G1 X89.715 Y84.482 E13.18449
G1 X89.401 Y84.926 E13.2026
G1 X88.671 Y85.904 E13.24325
G1 X87.893 Y86.784 E13.28238
G1 X87.524 Y87.186 E13.30055
G1 X86.677 Y88.053 E13.34093
G1 X85.79 Y88.827 E13.38014
G1 X85.377 Y89.171 E13.39805
G1 X84.41 Y89.933 E13.43906
G1 X83.443 Y90.574 E13.4777
G1 X82.983 Y90.864 E13.49582
G1 X81.951 Y91.479 E13.53583
G1 X80.88 Y92.004 E13.57556
G1 X80.39 Y92.23 E13.59354
G1 X79.289 Y92.703 E13.63345
G1 X78.168 Y93.081 E13.67286
G1 X77.629 Y93.248 E13.69166
G1 X76.483 Y93.572 E13.73133
G1 X75.313 Y93.802 E13.77105
G1 X74.767 Y93.896 E13.7895
G1 X73.589 Y94.067 E13.82915
G1 X72.41 Y94.141 E13.8685
G1 X71.846 Y94.163 E13.8873
G1 X70.673 Y94.18 E13.92638
G0 F2625 X75.712 Y73.085
G0 X72.605 Y67.264
G0 X72.577 Y67.359
G1 F900 X72.358 Y67.478 E13.93468
G1 X66.862 Y70.457 E14.14292
G1 X69.959 Y76.171 E14.35942
G1 X75.674 Y73.074 E14.57594
G1 X72.696 Y67.578 E14.78416
G1 X72.577 Y67.359 E14.78953
G0 F2625 X72.376 Y68.037
;TYPE:WALL-OUTER
G1 F900 X72.157 Y68.156 E14.79783
G1 X67.54 Y70.658 E14.97276
G1 X70.16 Y75.493 E15.15594
G1 X74.996 Y72.873 E15.33915
G1 X72.495 Y68.256 E15.51406
G1 X72.376 Y68.037 E15.51943
G0 F2625 X72.157 Y68.156
G0 X71.872 Y67.628
G0 X82.973 Y52.075
G0 X82.901 Y52.03
G1 F900 X83.686 Y50.751 E15.56941
G1 X83.726 Y50.685 E15.57199
G1 X83.777 Y50.623 E15.57466
G1 X83.85 Y50.572 E15.57763
G1 X83.923 Y50.555 E15.58012
G1 X83.984 Y50.557 E15.58216
G1 X84.052 Y50.577 E15.58452
G1 X84.118 Y50.617 E15.58709
G1 X84.377 Y50.777 E15.59723
G1 X84.441 Y50.851 E15.60049
G1 X84.467 Y50.944 E15.6037
G1 X84.466 Y51.005 E15.60574
G1 X84.445 Y51.074 E15.60814
G1 X83.601 Y52.458 E15.66214
G1 X84.268 Y52.906 E15.6889
G1 X84.729 Y53.233 E15.70773
G1 X85.377 Y53.715 E15.73463
G1 X86.356 Y52.517 E15.78617
G1 X86.406 Y52.456 E15.78879
G1 X86.461 Y52.416 E15.79106
G1 X86.539 Y52.389 E15.79381
G1 X86.616 Y52.391 E15.79637
G1 X86.676 Y52.41 E15.79847
G1 X86.745 Y52.452 E15.80116
G1 X86.806 Y52.503 E15.80381
G1 X87.003 Y52.665 E15.8123
G1 X87.054 Y52.74 E15.81533
G1 X87.07 Y52.812 E15.81778
G1 X87.069 Y52.876 E15.81992
G1 X87.05 Y52.939 E15.82211
G1 X87.006 Y53.01 E15.82489
G1 X86.015 Y54.233 E15.87732
G1 X86.618 Y54.765 E15.90411
G1 X87.032 Y55.147 E15.92287
G1 X87.612 Y55.712 E15.94985
G1 X88.794 Y54.599 E16.00393
G1 X88.887 Y54.554 E16.00737
G1 X88.983 Y54.554 E16.01057
G1 X89.045 Y54.572 E16.01272
G1 X89.098 Y54.605 E16.0148
G1 X89.291 Y54.803 E16.02401
G1 X89.334 Y54.848 E16.02608
G1 X89.393 Y54.938 E16.02966
G1 X89.408 Y55.002 E16.03185
G1 X89.406 Y55.07 E16.03412
G1 X89.38 Y55.15 E16.03692
G1 X89.322 Y55.223 E16.04003
G1 X89.277 Y55.266 E16.0421
G1 X88.177 Y56.307 E16.09255
G1 X88.706 Y56.914 E16.11937
G1 X89.067 Y57.347 E16.13815
G1 X89.568 Y57.983 E16.16512
G1 X90.795 Y57.094 E16.21559
G1 X90.843 Y57.059 E16.21757
G1 X90.919 Y57.018 E16.22044
G1 X90.978 Y57.003 E16.22247
G1 X91.046 Y57.006 E16.22474
G1 X91.107 Y57.023 E16.22685
G1 X91.159 Y57.056 E16.2289
G1 X91.219 Y57.119 E16.2318
G1 X91.253 Y57.168 E16.23378
G1 X91.41 Y57.389 E16.24281
G1 X91.44 Y57.472 E16.24575
G1 X91.437 Y57.549 E16.24832
G1 X91.42 Y57.61 E16.25043
G1 X91.387 Y57.663 E16.25251
G1 X91.323 Y57.724 E16.25546
G1 X90.05 Y58.648 E16.30785
G1 X90.495 Y59.316 E16.33459
G1 X90.796 Y59.794 E16.35341
G1 X91.211 Y60.49 E16.3804
G1 X92.573 Y59.756 E16.43194
G1 X92.641 Y59.719 E16.43451
G1 X92.706 Y59.704 E16.43674
G1 X92.767 Y59.706 E16.43877
G1 X92.855 Y59.734 E16.44185
G1 X92.91 Y59.779 E16.44421
G1 X92.961 Y59.85 E16.44712
G1 X92.997 Y59.919 E16.44972
G1 X93.114 Y60.14 E16.45805
G1 X93.13 Y60.206 E16.46031
G1 X93.128 Y60.27 E16.46244
G1 X93.109 Y60.334 E16.46467
G1 X93.076 Y60.387 E16.46675
G1 X93.028 Y60.433 E16.46896
G1 X91.602 Y61.211 E16.52307
G1 X91.956 Y61.932 E16.54983
G1 X92.191 Y62.445 E16.56862
G1 X92.512 Y63.189 E16.59561
G1 X94.033 Y62.61 E16.64982
G1 X94.129 Y62.608 E16.65302
G1 X94.188 Y62.626 E16.65508
G1 X94.264 Y62.674 E16.65807
G1 X94.31 Y62.738 E16.6607
G1 X94.444 Y63.089 E16.67321
G1 X94.452 Y63.161 E16.67563
G1 X94.442 Y63.222 E16.67768
G1 X94.403 Y63.303 E16.68068
G1 X94.351 Y63.351 E16.68304
G1 X94.272 Y63.394 E16.68603
G1 X92.805 Y63.955 E16.73835
G1 X93.062 Y64.717 E16.76514
G1 X93.229 Y65.256 E16.78393
G1 X93.449 Y66.035 E16.8109
G1 X95.028 Y65.662 E16.86494
G1 X95.098 Y65.664 E16.86727
G1 X95.158 Y65.682 E16.86936
G1 X95.214 Y65.716 E16.87154
G1 X95.258 Y65.763 E16.87369
G1 X95.291 Y65.824 E16.876
G1 X95.357 Y66.095 E16.88529
G1 X95.378 Y66.183 E16.8883
G1 X95.377 Y66.261 E16.8909
G1 X95.359 Y66.32 E16.89296
G1 X95.326 Y66.374 E16.89506
G1 X95.278 Y66.419 E16.89726
G1 X95.213 Y66.454 E16.89971
G1 X95.125 Y66.475 E16.90273
G1 X93.64 Y66.834 E16.95362
G1 X93.796 Y67.622 E16.98038
G1 X93.891 Y68.178 E16.99917
G1 X94.009 Y68.981 E17.0262
G1 X95.578 Y68.817 E17.07875
G1 X95.658 Y68.819 E17.08142
G1 X95.718 Y68.837 E17.0835
G1 X95.774 Y68.872 E17.0857
G1 X95.833 Y68.936 E17.0886
G1 X95.861 Y69.01 E17.09124
G1 X95.891 Y69.262 E17.09969
G1 X95.899 Y69.337 E17.1022
G1 X95.896 Y69.422 E17.10504
