;Generated by Cura LulzBot Edition GCodeWriter Version: 3.6.25
;FLAVOR:Marlin
;TIME:6352
;Filament used: 3.43721m
;Layer height: 0.25
;Generated with Cura_SteamEngine 3.6.25-9
M82 ;absolute extrusion mode
;This G-Code has been generated specifically for the LulzBot Mini 2 with SE 0.5mm Tool Head
M73 P0                  ; clear GLCD progress bar
M75 					; Start GLCD Print Timer
G26 					; clear potential 'probe fail' condition
M107 					; disable fans
M420 S0                 ; disable leveling matrix
G90 					; absolute positioning
M82 					; set extruder to absolute mode
G92 E0 					; set extruder position to 0
M140 S60.0 ; start bed heating up
G28 					; home all axes
G0 X0 Y187 Z156 F200 			; move away from endstops
M117 Mini 2 Wiping...			; progress indicator message on LCD
M109 R140 	; soften filament before retraction
G1 E-15 F75 				; retract filament
M109 R140 	; wait for extruder to reach wiping temp
G1 X45 Y176 F11520 			; move above wiper pad
G1 Z0 F1200 				; push nozzle into wiper
G1 X45 Y178 Z-.5 F4000		; wiping
G1 X55 Y176 Z-.5 F4000		; wiping
G1 X45 Y177 Z0 F4000		; wiping
G1 X55 Y176 F4000		; wiping
G1 X45 Y178 F4000		; wiping
G1 X55 Y176 F4000		; wiping
G1 X45 Y178 F4000		; wiping
G1 X55 Y176 F4000		; wiping
G1 X60 Y178 F4000		; wiping
G1 X80 Y176 F4000		; wiping
G1 X60 Y178 F4000		; wiping
G1 X80 Y176 F4000		; wiping
G1 X60 Y178 F4000		; wiping
G1 X90 Y176 F4000		; wiping
G1 X80 Y178 F4000		; wiping
G1 X100 Y176 F4000		; wiping
G1 X80 Y178 F4000		; wiping
G1 X100 Y176 F4000		; wiping
G1 X80 Y178 F4000		; wiping
G1 X100 Y176 F4000		; wiping
G1 X110 Y178 F4000		; wiping
G1 X100 Y176 F4000		; wiping
G1 X110 Y178 F4000		; wiping
G1 X100 Y176 F4000		; wiping
G1 X110 Y178 F4000		; wiping
G1 X115 Y176 Z-0.5 F1000	; wiping
G1 Z10					; raise extruder
G28 X0 Y0				; home X and Y
M109 R140	; wait for extruder to reach probe temp
M204 S300				; set probing acceleration
G29					; start auto-leveling sequence
M420 S1                     ; enable leveling matrix
M425 Z			     		; use measured Z backlash for compensation
M425 Z F0		     		; turn off measured Z backlash compensation. (if activated in the quality settings, this command will automatically be ignored)
M204 S2000				; restore standard acceleration
G1 X5 Y15 Z10 F5000			; move up off last probe point
G4 S1					; pause
M400					; wait for moves to finish
M117 Heating...				; progress indicator message on LCD
M109 R210 ; wait for extruder to reach initial printing temp
M190 R60.0 ; wait for bed to reach printing temp
G1 Z2 E0 F75				; prime tiny bit of filment into the nozzle
M117 Mini 2 Printing...		; progress indicator message on LCD

M221 S100 T0
G92 E0
G1 F600 E-1.75
;LAYER_COUNT:60
;LAYER:0
M425 F1.0
M107
G0 F2625 X30.095 Y55.6 Z0.425
;TYPE:SKIRT
G1 F600 E0
G1 F900 X31.898 Y54.704 E0.06707
G1 X32.181 Y54.579 E0.07737
G1 X33.825 Y53.949 E0.13602
G1 X34.117 Y53.853 E0.14626
G1 X36.076 Y53.308 E0.21399
G1 X36.399 Y53.236 E0.22501
G1 X38.422 Y52.89 E0.29338
G1 X38.752 Y52.85 E0.30445
G1 X40.771 Y52.714 E0.37186
G1 X41.097 Y52.709 E0.38272
G1 X43.077 Y52.775 E0.44871
G1 X43.379 Y52.799 E0.4588
G1 X124.066 Y63.061 E3.16816
G1 X124.3 Y63.099 E3.17606
G1 X126.273 Y63.498 E3.24311
G1 X126.571 Y63.573 E3.25335
G1 X128.242 Y64.079 E3.3115
G1 X128.528 Y64.181 E3.32162
G1 X130.397 Y64.944 E3.38886
G1 X130.694 Y65.083 E3.39979
G1 X132.443 Y66.012 E3.46576
G1 X132.724 Y66.18 E3.47666
G1 X134.44 Y67.327 E3.54542
G1 X134.707 Y67.526 E3.55651
G1 X136.273 Y68.823 E3.62424
G1 X136.476 Y69.006 E3.63334
G1 X137.407 Y69.919 E3.67678
G1 X137.589 Y70.113 E3.68564
G1 X138.891 Y71.618 E3.75193
G1 X139.093 Y71.877 E3.76287
G1 X140.259 Y73.538 E3.83047
G1 X140.433 Y73.814 E3.84134
G1 X141.426 Y75.583 E3.90891
G1 X141.573 Y75.88 E3.91995
G1 X142.378 Y77.734 E3.98728
G1 X142.488 Y78.023 E3.99758
G1 X143.036 Y79.709 E4.05663
G1 X143.101 Y79.939 E4.06459
G1 X143.397 Y81.144 E4.10593
G1 X143.448 Y81.394 E4.11443
G1 X143.74 Y83.178 E4.17464
G1 X143.776 Y83.485 E4.18494
G1 X143.912 Y85.504 E4.25235
G1 X143.917 Y85.829 E4.26317
G1 X143.852 Y87.803 E4.32896
G1 X143.825 Y88.129 E4.33986
G1 X143.551 Y90.168 E4.40839
G1 X143.503 Y90.439 E4.41756
G1 X143.219 Y91.718 E4.4612
G1 X143.152 Y91.972 E4.46995
G1 X142.575 Y93.842 E4.53514
G1 X142.462 Y94.15 E4.54607
G1 X141.659 Y96.048 E4.61471
G1 X141.515 Y96.346 E4.62574
G1 X140.559 Y98.088 E4.69193
G1 X140.353 Y98.416 E4.70483
G1 X138.723 Y100.693 E4.79811
G1 X138.477 Y100.996 E4.81111
G1 X137.118 Y102.48 E4.87814
G1 X136.882 Y102.712 E4.88916
G1 X135.37 Y104.058 E4.95659
G1 X135.113 Y104.265 E4.96759
G1 X133.453 Y105.465 E5.03582
G1 X133.178 Y105.643 E5.04673
G1 X131.417 Y106.663 E5.11452
G1 X131.104 Y106.823 E5.12623
G1 X129.038 Y107.738 E5.20149
G1 X128.728 Y107.856 E5.21254
G1 X127.051 Y108.402 E5.27129
G1 X126.757 Y108.483 E5.28145
G1 X124.784 Y108.926 E5.3488
G1 X124.463 Y108.981 E5.35965
G1 X122.465 Y109.223 E5.42669
G1 X122.134 Y109.246 E5.43775
G1 X120.075 Y109.284 E5.50634
G1 X119.725 Y109.272 E5.51801
G1 X117.221 Y109.048 E5.60175
G1 X117.098 Y109.035 E5.60587
G1 X36.942 Y98.765 E8.29772
G1 X36.577 Y98.696 E8.3101
G1 X34.951 Y98.295 E8.36588
G1 X34.661 Y98.209 E8.37596
G1 X32.69 Y97.523 E8.44548
G1 X32.376 Y97.396 E8.45676
G1 X30.539 Y96.533 E8.52437
G1 X30.249 Y96.378 E8.53532
G1 X28.509 Y95.334 E8.60291
G1 X28.237 Y95.152 E8.61381
G1 X26.622 Y93.947 E8.68093
G1 X26.37 Y93.738 E8.69184
G1 X24.892 Y92.383 E8.75863
G1 X24.66 Y92.148 E8.76963
G1 X23.315 Y90.637 E8.83701
G1 X23.109 Y90.38 E8.84799
G1 X21.908 Y88.719 E8.91626
G1 X21.729 Y88.443 E8.92722
G1 X20.71 Y86.683 E8.99496
G1 X20.55 Y86.368 E9.00673
G1 X19.63 Y84.285 E9.08258
G1 X19.512 Y83.977 E9.09357
G1 X18.964 Y82.292 E9.15259
G1 X18.899 Y82.062 E9.16055
G1 X18.603 Y80.856 E9.20192
G1 X18.552 Y80.605 E9.21045
G1 X18.257 Y78.799 E9.27141
G1 X18.221 Y78.491 E9.28174
G1 X18.088 Y76.494 E9.3484
G1 X18.083 Y76.17 E9.3592
G1 X18.149 Y74.189 E9.42522
G1 X18.176 Y73.864 E9.43608
G1 X18.449 Y71.832 E9.50438
G1 X18.497 Y71.561 E9.51355
G1 X18.781 Y70.282 E9.55719
G1 X18.849 Y70.027 E9.56598
G1 X19.429 Y68.148 E9.63148
G1 X19.542 Y67.838 E9.64247
G1 X20.349 Y65.936 E9.7113
G1 X20.492 Y65.641 E9.72222
G1 X21.441 Y63.912 E9.78792
G1 X21.612 Y63.634 E9.79879
G1 X22.778 Y61.939 E9.86732
G1 X22.978 Y61.679 E9.87825
G1 X24.264 Y60.163 E9.94447
G1 X24.491 Y59.921 E9.95552
G1 X25.976 Y58.495 E10.0241
G1 X26.227 Y58.277 E10.03517
G1 X27.827 Y57.028 E10.10278
G1 X28.094 Y56.84 E10.11366
G1 X29.808 Y55.76 E10.18115
G1 X30.095 Y55.6 E10.19209
G1 F600 E8.44209
;MESH:
G0 F2625 X36.606 Y55.83
G0 X36.966 Y57.216
G0 X42.777 Y56.851
G0 X42.784 Y56.752
;TYPE:WALL-INNER
G1 F600 E10.19209
G1 F900 X43.759 Y56.852 E10.22474
G1 X123.111 Y66.958 E12.88933
G1 X124.063 Y67.104 E12.92141
G1 X125.038 Y67.304 E12.95457
G1 X125.978 Y67.547 E12.98691
G1 X126.895 Y67.835 E13.01893
G1 X127.837 Y68.184 E13.05239
G1 X128.711 Y68.559 E13.08407
G1 X129.586 Y68.988 E13.11653
G1 X130.461 Y69.474 E13.14987
G1 X131.256 Y69.969 E13.18107
G1 X132.072 Y70.537 E13.21418
G1 X132.835 Y71.127 E13.24631
G1 X133.586 Y71.772 E13.27929
G1 X134.287 Y72.437 E13.31147
G1 X134.961 Y73.147 E13.34408
G1 X135.606 Y73.898 E13.37706
G1 X136.192 Y74.655 E13.40895
G1 X136.764 Y75.477 E13.44231
G1 X137.259 Y76.272 E13.4735
G1 X137.745 Y77.147 E13.50684
G1 X138.174 Y78.022 E13.5393
G1 X138.549 Y78.896 E13.57098
G1 X138.901 Y79.846 E13.60473
G1 X139.186 Y80.756 E13.63649
G1 X139.427 Y81.684 E13.66843
G1 X139.629 Y82.664 E13.70176
G1 X139.774 Y83.616 E13.73384
G1 X139.874 Y84.586 E13.76632
G1 X139.923 Y85.56 E13.79881
G1 X139.923 Y86.547 E13.83168
G1 X139.875 Y87.509 E13.86377
G1 X139.774 Y88.491 E13.89665
G1 X139.631 Y89.432 E13.92836
G1 X139.434 Y90.394 E13.96107
G1 X139.186 Y91.352 E13.99403
G1 X138.901 Y92.261 E14.02576
G1 X138.55 Y93.209 E14.05944
G1 X138.174 Y94.085 E14.09119
G1 X137.745 Y94.96 E14.12365
G1 X137.26 Y95.834 E14.15695
G1 X136.764 Y96.63 E14.18819
G1 X136.196 Y97.446 E14.22131
G1 X135.606 Y98.209 E14.25343
G1 X134.961 Y98.96 E14.28641
G1 X134.296 Y99.661 E14.3186
G1 X133.598 Y100.324 E14.35066
G1 X132.832 Y100.981 E14.38428
G1 X132.064 Y101.577 E14.41666
G1 X131.272 Y102.128 E14.4488
G1 X130.461 Y102.633 E14.48062
G1 X129.586 Y103.119 E14.51396
G1 X128.713 Y103.547 E14.54635
G1 X127.825 Y103.928 E14.57854
G1 X126.907 Y104.268 E14.61115
G1 X125.966 Y104.563 E14.644
G1 X125.038 Y104.803 E14.67593
G1 X124.063 Y105.003 E14.70908
G1 X123.114 Y105.149 E14.74106
G1 X122.143 Y105.248 E14.77357
G1 X121.168 Y105.297 E14.80609
G1 X120.191 Y105.297 E14.83864
G1 X119.216 Y105.248 E14.87116
G1 X118.241 Y105.148 E14.9038
G1 X38.889 Y95.042 E17.5684
G1 X37.937 Y94.896 E17.60048
G1 X36.962 Y94.696 E17.63363
G1 X36.022 Y94.453 E17.66597
G1 X35.105 Y94.165 E17.69799
G1 X34.163 Y93.816 E17.73145
G1 X33.287 Y93.44 E17.76321
G1 X32.414 Y93.012 E17.7956
G1 X31.549 Y92.532 E17.82855
G1 X30.727 Y92.019 E17.86082
G1 X29.92 Y91.458 E17.89356
G1 X29.168 Y90.874 E17.92528
G1 X28.402 Y90.217 E17.95889
G1 X27.704 Y89.554 E17.99096
G1 X27.038 Y88.852 E18.02319
G1 X26.394 Y88.102 E18.05612
G1 X25.804 Y87.339 E18.08825
G1 X25.236 Y86.523 E18.12137
G1 X24.74 Y85.727 E18.15261
G1 X24.255 Y84.853 E18.18591
G1 X23.826 Y83.978 E18.21837
G1 X23.448 Y83.097 E18.2503
G1 X23.105 Y82.169 E18.28326
G1 X22.814 Y81.244 E18.31556
G1 X22.569 Y80.299 E18.34808
G1 X22.369 Y79.324 E18.38123
G1 X22.226 Y78.384 E18.4129
G1 X22.125 Y77.402 E18.44579
G1 X22.077 Y76.44 E18.47787
G1 X22.077 Y75.453 E18.51075
G1 X22.125 Y74.491 E18.54283
G1 X22.226 Y73.509 E18.57572
G1 X22.369 Y72.568 E18.60742
G1 X22.57 Y71.588 E18.64074
G1 X22.814 Y70.648 E18.67309
G1 X23.099 Y69.739 E18.70483
G1 X23.451 Y68.788 E18.7386
G1 X23.826 Y67.915 E18.77025
G1 X24.255 Y67.04 E18.80271
G1 X24.741 Y66.165 E18.83606
G1 X25.236 Y65.37 E18.86725
G1 X25.808 Y64.548 E18.90061
G1 X26.394 Y63.791 E18.9325
G1 X27.039 Y63.04 E18.96547
G1 X27.704 Y62.339 E18.99766
G1 X28.414 Y61.665 E19.03027
G1 X29.165 Y61.02 E19.06325
G1 X29.928 Y60.43 E19.09537
G1 X30.744 Y59.862 E19.12849
G1 X31.539 Y59.367 E19.15969
G1 X32.414 Y58.881 E19.19303
G1 X33.289 Y58.452 E19.22549
G1 X34.175 Y58.072 E19.2576
G1 X35.093 Y57.732 E19.29021
G1 X36.034 Y57.437 E19.32306
G1 X36.962 Y57.197 E19.35499
G1 X37.937 Y56.997 E19.38814
G1 X38.886 Y56.851 E19.42013
G1 X39.857 Y56.752 E19.45264
G1 X40.832 Y56.703 E19.48516
G1 X41.809 Y56.703 E19.5177
G1 X42.784 Y56.752 E19.55022
G0 F2625 X42.777 Y56.851
G0 X45.604 Y78.531
G0 X45.985 Y79.639
G0 X46.58 Y80.646
G0 X47.369 Y81.514
G0 X48.315 Y82.206
G0 X49.381 Y82.692
G0 X50.523 Y82.955
G0 X51.47 Y82.976
G0 X52.862 Y82.831
G0 X52.835 Y82.735
G1 F900 X53.385 Y82.544 E19.56961
G1 X53.913 Y82.301 E19.58897
G1 X54.416 Y82.004 E19.60843
G1 X54.884 Y81.658 E19.62782
G1 X55.316 Y81.267 E19.64723
G1 X55.705 Y80.834 E19.66662
G1 X56.049 Y80.363 E19.68605
G1 X56.343 Y79.862 E19.7054
G1 X56.586 Y79.33 E19.72488
G1 X56.773 Y78.778 E19.74429
G1 X56.902 Y78.212 E19.76363
G1 X56.975 Y77.635 E19.783
G1 X56.988 Y77.051 E19.80246
G1 X56.942 Y76.471 E19.82184
G1 X56.84 Y75.898 E19.84123
G1 X56.678 Y75.338 E19.86065
G1 X56.46 Y74.796 E19.88011
G1 X56.189 Y74.282 E19.89946
G1 X55.868 Y73.795 E19.91889
G1 X55.497 Y73.344 E19.93834
G1 X55.085 Y72.935 E19.95768
G1 X54.635 Y72.568 E19.97702
G1 X54.147 Y72.248 E19.99646
G1 X53.63 Y71.978 E20.01589
G1 X53.088 Y71.765 E20.03529
G1 X52.528 Y71.605 E20.05469
G1 X51.954 Y71.504 E20.0741
G1 X51.374 Y71.461 E20.09348
G1 X50.79 Y71.476 E20.11294
G1 X50.212 Y71.553 E20.13236
G1 X49.645 Y71.686 E20.15176
G1 X49.097 Y71.875 E20.17107
G1 X48.567 Y72.119 E20.1905
G1 X48.065 Y72.416 E20.20993
G1 X47.598 Y72.761 E20.22927
G1 X47.166 Y73.151 E20.24866
G1 X46.775 Y73.586 E20.26814
G1 X46.432 Y74.057 E20.28755
G1 X46.138 Y74.559 E20.30693
G1 X45.895 Y75.088 E20.32632
G1 X45.707 Y75.641 E20.34578
G1 X45.578 Y76.209 E20.36518
G1 X45.506 Y76.785 E20.38452
G1 X45.493 Y77.369 E20.40397
G1 X45.537 Y77.949 E20.42335
G1 X45.642 Y78.522 E20.44275
G1 X45.803 Y79.081 E20.46213
G1 X46.021 Y79.623 E20.48159
G1 X46.292 Y80.137 E20.50095
G1 X46.612 Y80.623 E20.52033
G1 X46.982 Y81.075 E20.53979
G1 X47.395 Y81.485 E20.55917
G1 X47.847 Y81.852 E20.57857
G1 X48.335 Y82.172 E20.59801
G1 X48.851 Y82.44 E20.61737
G1 X49.393 Y82.655 E20.6368
G1 X49.953 Y82.814 E20.65619
G1 X50.527 Y82.916 E20.67561
G1 X51.107 Y82.958 E20.69498
G1 X51.691 Y82.943 E20.71444
G1 X52.268 Y82.866 E20.73383
G1 X52.835 Y82.735 E20.75321
G0 F2625 X52.862 Y82.831
G0 X74.352 Y76.844
G0 X80.543 Y75.167
G0 X80.55 Y75.266
G1 F900 X79.972 Y75.343 E20.77264
G1 X79.405 Y75.476 E20.79204
G1 X78.856 Y75.665 E20.81138
G1 X78.326 Y75.909 E20.83081
G1 X77.825 Y76.206 E20.85021
G1 X77.357 Y76.551 E20.86958
G1 X76.925 Y76.941 E20.88897
G1 X76.534 Y77.377 E20.90847
G1 X76.191 Y77.848 E20.92788
G1 X75.897 Y78.349 E20.94723
G1 X75.655 Y78.879 E20.96664
G1 X75.467 Y79.432 E20.9861
G1 X75.338 Y79.998 E21.00543
G1 X75.265 Y80.576 E21.02484
G1 X75.253 Y81.159 E21.04426
G1 X75.297 Y81.739 E21.06364
G1 X75.4 Y82.312 E21.08303
G1 X75.563 Y82.873 E21.10249
G1 X75.781 Y83.414 E21.12192
G1 X76.051 Y83.927 E21.14123
G1 X76.373 Y84.414 E21.16068
G1 X76.742 Y84.865 E21.18009
G1 X77.155 Y85.275 E21.19947
G1 X77.607 Y85.642 E21.21887
G1 X78.095 Y85.962 E21.23831
G1 X78.611 Y86.23 E21.25768
G1 X79.152 Y86.445 E21.27707
G1 X79.713 Y86.605 E21.2965
G1 X80.286 Y86.706 E21.31588
G1 X80.866 Y86.748 E21.33525
G1 X81.45 Y86.734 E21.35471
G1 X82.028 Y86.657 E21.37413
G1 X82.595 Y86.524 E21.39353
G1 X83.144 Y86.335 E21.41287
G1 X83.674 Y86.091 E21.43231
G1 X84.175 Y85.794 E21.45171
G1 X84.643 Y85.449 E21.47108
G1 X85.075 Y85.059 E21.49046
G1 X85.466 Y84.623 E21.50997
G1 X85.809 Y84.152 E21.52938
G1 X86.103 Y83.651 E21.54873
G1 X86.345 Y83.121 E21.56814
G1 X86.533 Y82.568 E21.58759
G1 X86.662 Y82.002 E21.60693
G1 X86.735 Y81.424 E21.62634
G1 X86.747 Y80.841 E21.64576
G1 X86.703 Y80.261 E21.66514
G1 X86.6 Y79.688 E21.68453
G1 X86.437 Y79.127 E21.70399
G1 X86.219 Y78.586 E21.72342
G1 X85.949 Y78.073 E21.74273
G1 X85.627 Y77.586 E21.76218
G1 X85.258 Y77.135 E21.78159
G1 X84.845 Y76.725 E21.80097
G1 X84.393 Y76.358 E21.82037
G1 X83.905 Y76.038 E21.83981
G1 X83.389 Y75.77 E21.85917
G1 X82.848 Y75.555 E21.87857
G1 X82.287 Y75.395 E21.898
G1 X81.714 Y75.294 E21.91738
G1 X81.134 Y75.252 E21.93675
G1 X80.55 Y75.266 E21.95621
G0 F2625 X80.543 Y75.167
G0 X81.718 Y75.255
G0 X112.061 Y79.149
G0 X113.168 Y79.525
G0 X114.18 Y80.118
G0 X115.051 Y80.903
G0 X115.744 Y81.846
G0 X116.236 Y82.91
G0 X116.503 Y84.05
G0 X116.526 Y84.997
G0 X116.388 Y86.392
G0 X116.292 Y86.365
G1 F900 X116.421 Y85.796 E21.97564
G1 X116.494 Y85.219 E21.99502
G1 X116.507 Y84.637 E22.01441
G1 X116.464 Y84.055 E22.03385
G1 X116.359 Y83.482 E22.05325
G1 X116.199 Y82.922 E22.07265
G1 X115.981 Y82.381 E22.09208
G1 X115.71 Y81.866 E22.11147
G1 X115.391 Y81.381 E22.1308
G1 X115.022 Y80.929 E22.15024
G1 X114.608 Y80.517 E22.1697
G1 X114.157 Y80.15 E22.18906
G1 X113.669 Y79.83 E22.2085
G1 X113.152 Y79.561 E22.22792
G1 X112.612 Y79.346 E22.24728
G1 X112.052 Y79.187 E22.26667
G1 X111.478 Y79.084 E22.28609
G1 X110.897 Y79.042 E22.3055
G1 X110.314 Y79.057 E22.32492
G1 X109.738 Y79.132 E22.34427
G1 X109.17 Y79.263 E22.36369
G1 X108.618 Y79.454 E22.38315
G1 X108.091 Y79.696 E22.40246
G1 X107.588 Y79.992 E22.4219
G1 X107.119 Y80.339 E22.44134
G1 X106.687 Y80.73 E22.46075
G1 X106.298 Y81.162 E22.48011
G1 X105.954 Y81.633 E22.49954
G1 X105.659 Y82.134 E22.51891
G1 X105.416 Y82.664 E22.53833
G1 X105.228 Y83.216 E22.55775
G1 X105.098 Y83.783 E22.57713
G1 X105.025 Y84.361 E22.59654
G1 X105.012 Y84.945 E22.61599
G1 X105.056 Y85.525 E22.63537
G1 X105.159 Y86.098 E22.65476
G1 X105.32 Y86.657 E22.67414
G1 X105.538 Y87.2 E22.69363
G1 X105.809 Y87.714 E22.71299
G1 X106.129 Y88.202 E22.73242
G1 X106.499 Y88.652 E22.75183
G1 X106.911 Y89.063 E22.77121
G1 X107.362 Y89.43 E22.79058
G1 X107.849 Y89.75 E22.80999
G1 X108.367 Y90.02 E22.82945
G1 X108.907 Y90.234 E22.8488
G1 X109.467 Y90.394 E22.8682
G1 X110.041 Y90.496 E22.88762
G1 X110.622 Y90.539 E22.90703
G1 X111.205 Y90.524 E22.92645
G1 X111.783 Y90.449 E22.94587
G1 X112.35 Y90.317 E22.96526
