;Generated by Cura LulzBot Edition GCodeWriter Version: 3.6.25
;FLAVOR:Marlin
;TIME:4297
;Filament used: 1.99229m
;Layer height: 0.25
;Generated with Cura_SteamEngine 3.6.25-9
M82 ;absolute extrusion mode
;This G-Code has been generated specifically for the LulzBot Mini 2 with SE 0.5mm Tool Head
M73 P0                  ; clear GLCD progress bar
M75 					; Start GLCD Print Timer
G26 					; clear potential 'probe fail' condition
M107 					; disable fans
M420 S0                 ; disable leveling matrix
G90 					; absolute positioning
M82 					; set extruder to absolute mode
G92 E0 					; set extruder position to 0
M140 S60.0 ; start bed heating up
G28 					; home all axes
G0 X0 Y187 Z156 F200 			; move away from endstops
M117 Mini 2 Wiping...			; progress indicator message on LCD
M109 R140 	; soften filament before retraction
G1 E-15 F75 				; retract filament
M109 R140 	; wait for extruder to reach wiping temp
G1 X45 Y176 F11520 			; move above wiper pad
G1 Z0 F1200 				; push nozzle into wiper
G1 X45 Y178 Z-.5 F4000		; wiping
G1 X55 Y176 Z-.5 F4000		; wiping
G1 X45 Y177 Z0 F4000		; wiping
G1 X55 Y176 F4000		; wiping
G1 X45 Y178 F4000		; wiping
G1 X55 Y176 F4000		; wiping
G1 X45 Y178 F4000		; wiping
G1 X55 Y176 F4000		; wiping
G1 X60 Y178 F4000		; wiping
G1 X80 Y176 F4000		; wiping
G1 X60 Y178 F4000		; wiping
G1 X80 Y176 F4000		; wiping
G1 X60 Y178 F4000		; wiping
G1 X90 Y176 F4000		; wiping
G1 X80 Y178 F4000		; wiping
G1 X100 Y176 F4000		; wiping
G1 X80 Y178 F4000		; wiping
G1 X100 Y176 F4000		; wiping
G1 X80 Y178 F4000		; wiping
G1 X100 Y176 F4000		; wiping
G1 X110 Y178 F4000		; wiping
G1 X100 Y176 F4000		; wiping
G1 X110 Y178 F4000		; wiping
G1 X100 Y176 F4000		; wiping
G1 X110 Y178 F4000		; wiping
G1 X115 Y176 Z-0.5 F1000	; wiping
G1 Z10					; raise extruder
G28 X0 Y0				; home X and Y
M109 R140	; wait for extruder to reach probe temp
M204 S300				; set probing acceleration
G29					; start auto-leveling sequence
M420 S1                     ; enable leveling matrix
M425 Z			     		; use measured Z backlash for compensation
M425 Z F0		     		; turn off measured Z backlash compensation. (if activated in the quality settings, this command will automatically be ignored)
M204 S2000				; restore standard acceleration
G1 X5 Y15 Z10 F5000			; move up off last probe point
G4 S1					; pause
M400					; wait for moves to finish
M117 Heating...				; progress indicator message on LCD
M109 R210 ; wait for extruder to reach initial printing temp
M190 R60.0 ; wait for bed to reach printing temp
G1 Z2 E0 F75				; prime tiny bit of filment into the nozzle
M117 Mini 2 Printing...		; progress indicator message on LCD

M221 S100 T0
G92 E0
G1 F600 E-1.75
;LAYER_COUNT:41
;LAYER:0
M425 F1.0
M107
G0 F2625 X54.165 Y44.36 Z0.425
;TYPE:SKIRT
G1 F600 E0
G1 F900 X56.145 Y42.214 E0.09726
G1 X56.446 Y41.928 E0.11109
G1 X59.299 Y39.536 E0.23511
G1 X59.655 Y39.276 E0.24979
G1 X62.019 Y37.787 E0.34286
G1 X62.379 Y37.591 E0.35651
G1 X65.794 Y36 E0.48201
G1 X66.221 Y35.836 E0.49724
G1 X69.281 Y34.906 E0.60378
G1 X69.683 Y34.812 E0.61753
G1 X71.116 Y34.569 E0.66594
G1 X71.138 Y34.565 E0.66669
G1 X72.955 Y34.27 E0.72801
G1 X73.35 Y34.23 E0.74123
G1 X76.212 Y34.119 E0.83664
G1 X76.625 Y34.13 E0.8504
G1 X80.307 Y34.456 E0.97353
G1 X80.764 Y34.529 E0.98894
G1 X83.97 Y35.283 E1.09865
G1 X84.369 Y35.405 E1.11255
G1 X87.37 Y36.533 E1.21934
G1 X87.738 Y36.698 E1.23277
G1 X90.187 Y37.984 E1.32492
G1 X90.518 Y38.183 E1.33778
G1 X93.33 Y40.117 E1.45146
G1 X93.689 Y40.404 E1.46677
G1 X96.378 Y42.879 E1.58851
G1 X96.676 Y43.192 E1.60291
G1 X98.491 Y45.375 E1.69747
G1 X98.733 Y45.707 E1.71116
G1 X100.691 Y48.78 E1.83253
G1 X100.846 Y49.052 E1.84296
G1 X102.113 Y51.54 E1.93597
G1 X104.816 Y56.347 E2.11967
G1 X107.765 Y60.96 E2.30204
G1 X109.319 Y63.177 E2.39223
G1 X112.661 Y67.537 E2.57522
G1 X116.24 Y71.698 E2.75804
G1 X120.023 Y75.624 E2.93965
G1 X124.042 Y79.347 E3.12214
G1 X128.604 Y83.108 E3.31908
G1 X128.745 Y83.231 E3.32532
G1 X130.817 Y85.149 E3.41937
G1 X131.085 Y85.428 E3.43225
G1 X133.215 Y87.932 E3.54176
G1 X133.481 Y88.294 E3.55672
G1 X135.461 Y91.407 E3.67961
G1 X135.67 Y91.79 E3.69415
G1 X136.832 Y94.31 E3.78659
G1 X136.973 Y94.67 E3.79946
G1 X138.02 Y97.905 E3.91273
G1 X138.129 Y98.342 E3.92773
G1 X138.744 Y101.835 E4.04587
G1 X138.791 Y102.272 E4.06051
G1 X138.851 Y103.811 E4.11182
G1 X138.852 Y103.839 E4.11275
G1 X138.907 Y105.651 E4.17314
G1 X138.892 Y106.07 E4.1871
G1 X138.569 Y109.338 E4.29649
G1 X138.5 Y109.758 E4.31067
G1 X137.756 Y112.942 E4.41958
G1 X137.633 Y113.347 E4.43368
G1 X136.495 Y116.371 E4.54131
G1 X136.329 Y116.739 E4.55476
G1 X134.985 Y119.293 E4.65089
G1 X134.765 Y119.654 E4.66498
G1 X132.614 Y122.703 E4.78927
G1 X132.331 Y123.05 E4.80418
G1 X130.156 Y125.374 E4.91021
G1 X129.846 Y125.664 E4.92435
G1 X127.288 Y127.765 E5.03462
G1 X126.957 Y128.004 E5.04822
G1 X124.531 Y129.532 E5.14372
G1 X124.164 Y129.731 E5.15763
G1 X120.816 Y131.281 E5.28052
G1 X120.414 Y131.436 E5.29487
G1 X117.81 Y132.244 E5.38569
G1 X117.413 Y132.34 E5.3993
G1 X113.65 Y133.005 E5.52659
G1 X113.213 Y133.052 E5.54123
G1 X110.562 Y133.157 E5.6296
G1 X110.157 Y133.148 E5.6431
G1 X106.297 Y132.819 E5.77214
G1 X105.917 Y132.764 E5.78493
G1 X100.387 Y131.625 E5.97301
G1 X97.765 Y131.201 E6.06148
G1 X92.313 Y130.555 E6.24436
G1 X86.842 Y130.219 E6.42694
G1 X81.377 Y130.191 E6.60899
G1 X75.907 Y130.475 E6.79144
G1 X70.14 Y131.108 E6.98469
G1 X69.788 Y131.127 E6.99644
G1 X67.788 Y131.128 E7.06306
G1 X67.28 Y131.088 E7.08003
G1 X66.784 Y130.97 E7.09701
G1 X66.313 Y130.775 E7.11399
G1 X65.879 Y130.509 E7.13095
G1 X65.491 Y130.179 E7.14792
G1 X65.159 Y129.792 E7.1649
G1 X65.004 Y129.558 E7.17425
G1 X62.581 Y125.545 E7.3304
G1 X58.589 Y119.72 E7.56563
G1 X58.335 Y119.279 E7.58258
G1 X58.153 Y118.803 E7.59956
G1 X58.047 Y118.304 E7.61655
G1 X58.02 Y117.901 E7.63
G1 X57.971 Y109.303 E7.91641
G1 X57.66 Y103.811 E8.09964
G1 X57.044 Y98.389 E8.28141
G1 X56.116 Y92.976 E8.46435
G1 X55.553 Y90.361 E8.55346
G1 X54.897 Y87.682 E8.64533
G1 X53.366 Y82.414 E8.82807
G1 X51.54 Y77.242 E9.01077
G1 X49.531 Y72.37 E9.18632
G1 X49.425 Y72.072 E9.19685
G1 X48.483 Y68.959 E9.30519
G1 X48.391 Y68.569 E9.31854
G1 X47.927 Y65.874 E9.40963
G1 X47.884 Y65.494 E9.42237
G1 X47.706 Y62.114 E9.53512
G1 X47.715 Y61.657 E9.55034
G1 X48.041 Y57.973 E9.67354
G1 X48.113 Y57.519 E9.68885
G1 X48.856 Y54.341 E9.79756
G1 X48.973 Y53.952 E9.81109
G1 X49.97 Y51.26 E9.90672
G1 X50.139 Y50.881 E9.92054
G1 X51.852 Y47.612 E10.04348
G1 X52.085 Y47.233 E10.0583
G1 X53.908 Y44.677 E10.16287
G1 X54.165 Y44.36 E10.17647
G1 F600 E8.42647
;MESH:
G0 F2625 X55.644 Y46.978
G0 X56.675 Y47.252
G0 X58.303 Y48.56
G0 X81.174 Y84.148
;TYPE:WALL-INNER
G1 F600 E10.17647
G1 F900 X79.971 Y84.385 E10.21731
G1 X79.446 Y84.475 E10.23505
G1 X78.275 Y84.648 E10.27448
G1 X77.074 Y84.723 E10.31457
G1 X76.51 Y84.745 E10.33337
G1 X75.326 Y84.762 E10.37281
G1 X74.141 Y84.68 E10.41238
G1 X73.593 Y84.63 E10.43071
G1 X72.397 Y84.489 E10.47082
G1 X71.249 Y84.257 E10.50984
G1 X70.693 Y84.131 E10.52883
G1 X69.561 Y83.845 E10.56772
G1 X68.425 Y83.458 E10.6077
G1 X67.896 Y83.262 E10.62649
G1 X66.804 Y82.827 E10.66564
G1 X65.721 Y82.291 E10.70589
G1 X65.245 Y82.039 E10.72383
G1 X64.217 Y81.466 E10.76304
G1 X63.211 Y80.791 E10.80339
G1 X62.771 Y80.48 E10.82134
G1 X61.813 Y79.765 E10.86116
G1 X60.908 Y78.968 E10.90133
G1 X60.504 Y78.594 E10.91967
G1 X59.644 Y77.756 E10.95967
G1 X58.867 Y76.865 E10.99905
G1 X58.513 Y76.44 E11.01747
G1 X57.778 Y75.506 E11.05706
G1 X57.121 Y74.519 E11.09656
G1 X56.824 Y74.047 E11.11513
G1 X56.218 Y73.03 E11.15457
G1 X55.69 Y71.954 E11.19449
G1 X55.462 Y71.458 E11.21268
G1 X54.994 Y70.367 E11.25222
G1 X54.61 Y69.229 E11.29223
G1 X54.447 Y68.702 E11.3106
G1 X54.131 Y67.586 E11.34924
G1 X53.894 Y66.387 E11.38995
G1 X53.801 Y65.844 E11.4083
G1 X53.631 Y64.668 E11.44788
G1 X53.557 Y63.489 E11.48723
G1 X53.535 Y62.925 E11.50603
G1 X53.518 Y61.729 E11.54588
G1 X53.598 Y60.564 E11.58477
G1 X53.649 Y60.014 E11.60317
G1 X53.785 Y58.849 E11.64224
G1 X54.022 Y57.664 E11.6825
G1 X54.145 Y57.12 E11.70108
G1 X54.437 Y55.964 E11.74079
G1 X54.823 Y54.838 E11.78044
G1 X55.012 Y54.326 E11.79862
G1 X55.461 Y53.197 E11.83909
G1 X55.985 Y52.143 E11.8783
G1 X56.237 Y51.665 E11.8963
G1 X56.816 Y50.628 E11.93586
G1 X57.481 Y49.636 E11.97565
G1 X57.8 Y49.186 E11.99402
G1 X58.52 Y48.22 E12.03415
G1 X59.311 Y47.323 E12.07399
G1 X59.673 Y46.931 E12.09176
G1 X60.521 Y46.06 E12.13226
G1 X61.41 Y45.286 E12.17152
G1 X61.825 Y44.94 E12.18952
G1 X62.747 Y44.211 E12.22867
G1 X63.751 Y43.542 E12.26886
G1 X64.217 Y43.248 E12.28721
G1 X65.248 Y42.634 E12.32718
G1 X66.32 Y42.108 E12.36696
G1 X66.816 Y41.88 E12.38514
G1 X67.905 Y41.41 E12.42465
G1 X69.033 Y41.031 E12.46429
G1 X69.571 Y40.864 E12.48306
G1 X70.691 Y40.546 E12.52184
G1 X71.892 Y40.309 E12.56262
G1 X72.424 Y40.218 E12.58059
G1 X73.613 Y40.046 E12.62061
G1 X74.791 Y39.972 E12.65993
G1 X75.355 Y39.95 E12.67873
G1 X76.549 Y39.933 E12.71851
G1 X77.723 Y40.014 E12.75771
G1 X78.271 Y40.064 E12.77604
G1 X79.464 Y40.204 E12.81605
G1 X80.615 Y40.437 E12.85517
G1 X81.171 Y40.563 E12.87416
G1 X82.318 Y40.853 E12.91357
G1 X83.447 Y41.24 E12.95332
G1 X83.959 Y41.429 E12.9715
G1 X85.071 Y41.871 E13.01136
G1 X86.142 Y42.404 E13.05121
G1 X86.614 Y42.651 E13.06896
G1 X87.679 Y43.25 E13.10966
G1 X88.643 Y43.896 E13.14831
G1 X89.104 Y44.223 E13.16714
G1 X90.041 Y44.919 E13.20602
G1 X90.957 Y45.726 E13.24668
G1 X91.348 Y46.087 E13.26441
G1 X92.22 Y46.936 E13.30495
G1 X92.994 Y47.825 E13.34421
G1 X93.339 Y48.239 E13.36217
G1 X94.078 Y49.175 E13.40189
G1 X94.736 Y50.164 E13.44146
G1 X95.031 Y50.632 E13.45989
G1 X95.651 Y51.673 E13.50025
G1 X96.166 Y52.724 E13.53923
G1 X96.397 Y53.225 E13.55761
G1 X96.873 Y54.333 E13.59778
G1 X97.248 Y55.447 E13.63693
G1 X97.415 Y55.986 E13.65573
G1 X97.736 Y57.116 E13.69486
G1 X97.968 Y58.288 E13.73466
G1 X98.061 Y58.831 E13.75301
G1 X98.234 Y60.029 E13.79333
G1 X98.308 Y61.201 E13.83245
G1 X98.33 Y61.764 E13.85121
G1 X98.347 Y62.937 E13.89029
G1 X98.267 Y64.13 E13.93012
G1 X98.215 Y64.692 E13.94892
G1 X98.072 Y65.891 E13.98914
G1 X97.842 Y67.03 E14.02785
G1 X97.719 Y67.574 E14.04643
G1 X97.43 Y68.718 E14.08573
G1 X97.043 Y69.855 E14.12574
G1 X96.849 Y70.379 E14.14435
G1 X96.412 Y71.476 E14.18369
G1 X95.884 Y72.541 E14.22328
G1 X95.621 Y73.041 E14.2421
G1 X95.05 Y74.063 E14.2811
G1 X94.379 Y75.064 E14.32124
G1 X94.065 Y75.508 E14.33935
G1 X93.338 Y76.483 E14.37986
G1 X92.567 Y77.357 E14.41869
G1 X92.183 Y77.772 E14.43752
G1 X91.37 Y78.609 E14.47639
G1 X90.465 Y79.401 E14.51645
G1 X90.041 Y79.753 E14.5348
G1 X89.098 Y80.496 E14.5748
G1 X88.114 Y81.152 E14.61419
G1 X87.648 Y81.446 E14.63254
G1 X86.619 Y82.059 E14.67244
G1 X85.544 Y82.586 E14.71232
G1 X85.054 Y82.812 E14.73029
G1 X83.932 Y83.294 E14.77097
G1 X82.832 Y83.663 E14.80962
G1 X82.293 Y83.83 E14.82842
G1 X81.174 Y84.148 E14.86717
G0 F2625 X87.637 Y42.657
G0 X87.565 Y42.612
;TYPE:WALL-OUTER
G1 F900 X88.382 Y41.282 E14.91916
G1 X88.499 Y41.171 E14.92453
G1 X88.618 Y41.143 E14.9286
G1 X88.772 Y41.188 E14.93395
G1 X88.946 Y41.295 E14.94075
G1 X88.987 Y41.32 E14.94235
G1 X89.098 Y41.437 E14.94772
G1 X89.126 Y41.556 E14.9518
G1 X89.081 Y41.71 E14.95714
G1 X89.056 Y41.751 E14.95874
G1 X88.264 Y43.04 E15.00914
G1 X88.932 Y43.488 E15.03593
G1 X89.393 Y43.815 E15.05475
G1 X90.043 Y44.298 E15.08173
G1 X90.993 Y43.126 E15.13198
G1 X91.023 Y43.089 E15.13357
G1 X91.155 Y42.993 E15.13901
G1 X91.279 Y42.98 E15.14316
G1 X91.425 Y43.045 E15.14848
G1 X91.462 Y43.075 E15.15007
G1 X91.618 Y43.202 E15.15677
G1 X91.714 Y43.334 E15.16221
G1 X91.727 Y43.459 E15.16639
G1 X91.663 Y43.603 E15.17164
G1 X90.68 Y44.815 E15.22363
G1 X91.288 Y45.351 E15.25062
G1 X91.697 Y45.729 E15.26918
G1 X92.278 Y46.295 E15.29619
G1 X93.414 Y45.219 E15.34831
G1 X93.55 Y45.145 E15.35347
G1 X93.675 Y45.148 E15.35764
G1 X93.812 Y45.233 E15.36301
G1 X93.951 Y45.379 E15.36972
G1 X93.985 Y45.415 E15.37137
G1 X94.061 Y45.556 E15.37671
G1 X94.058 Y45.682 E15.38091
G1 X93.977 Y45.814 E15.38606
G1 X93.941 Y45.848 E15.38771
G1 X92.842 Y46.889 E15.43814
G1 X93.371 Y47.496 E15.46496
G1 X93.731 Y47.929 E15.48372
G1 X94.234 Y48.565 E15.51073
G1 X95.497 Y47.648 E15.56272
G1 X95.644 Y47.592 E15.56796
G1 X95.77 Y47.612 E15.57221
G1 X95.892 Y47.711 E15.57744
G1 X96.012 Y47.876 E15.58424
G1 X96.04 Y47.915 E15.58584
G1 X96.098 Y48.066 E15.59122
G1 X96.078 Y48.191 E15.59544
G1 X95.979 Y48.313 E15.60067
G1 X95.94 Y48.341 E15.60227
G1 X94.715 Y49.23 E15.65269
G1 X95.159 Y49.898 E15.67941
G1 X95.46 Y50.376 E15.69823
G1 X95.875 Y51.072 E15.72522
G1 X97.249 Y50.328 E15.77727
G1 X97.402 Y50.291 E15.78251
G1 X97.521 Y50.327 E15.78665
G1 X97.63 Y50.442 E15.79193
G1 X97.729 Y50.624 E15.79883
G1 X97.753 Y50.668 E15.8005
G1 X97.789 Y50.819 E15.80567
G1 X97.754 Y50.939 E15.80983
G1 X97.638 Y51.049 E15.81516
G1 X97.594 Y51.073 E15.81683
G1 X96.266 Y51.792 E15.86713
G1 X96.62 Y52.515 E15.89395
G1 X96.856 Y53.027 E15.91273
G1 X97.176 Y53.771 E15.9397
G1 X98.631 Y53.214 E15.9916
G1 X98.793 Y53.197 E15.99703
G1 X98.906 Y53.248 E16.00116
G1 X99 Y53.377 E16.00647
G1 X99.073 Y53.567 E16.01325
G1 X99.09 Y53.612 E16.01486
G1 X99.107 Y53.772 E16.02022
G1 X99.056 Y53.886 E16.02438
G1 X98.927 Y53.98 E16.02969
G1 X98.882 Y53.997 E16.03129
G1 X97.469 Y54.537 E16.08168
G1 X97.726 Y55.299 E16.10847
G1 X97.893 Y55.838 E16.12727
G1 X98.114 Y56.618 E16.15427
G1 X99.584 Y56.266 E16.20462
G1 X99.631 Y56.255 E16.20623
G1 X99.791 Y56.259 E16.21156
G1 X99.897 Y56.324 E16.2157
G1 X99.974 Y56.465 E16.22105
G1 X99.985 Y56.512 E16.22266
G1 X100.032 Y56.71 E16.22944
G1 X100.028 Y56.87 E16.23477
G1 X99.963 Y56.976 E16.23891
G1 X99.822 Y57.053 E16.24427
G1 X98.305 Y57.416 E16.29622
G1 X98.461 Y58.204 E16.32298
G1 X98.556 Y58.76 E16.34177
G1 X98.672 Y59.563 E16.3688
G1 X100.226 Y59.4 E16.42084
G1 X100.383 Y59.426 E16.42615
G1 X100.479 Y59.504 E16.43027
G1 X100.535 Y59.65 E16.43547
G1 X100.557 Y59.855 E16.44234
G1 X100.562 Y59.905 E16.44402
G1 X100.536 Y60.063 E16.44935
G1 X100.458 Y60.159 E16.45347
G1 X100.312 Y60.215 E16.45868
G1 X100.262 Y60.22 E16.46035
G1 X98.757 Y60.377 E16.51076
G1 X98.808 Y61.181 E16.53759
G1 X98.83 Y61.744 E16.55636
G1 X98.841 Y62.555 E16.58338
G1 X100.351 Y62.595 E16.63369
G1 X100.401 Y62.596 E16.63536
G1 X100.553 Y62.642 E16.64065
G1 X100.64 Y62.733 E16.64484
G1 X100.677 Y62.886 E16.65009
G1 X100.676 Y62.936 E16.65175
G1 X100.67 Y63.139 E16.65852
G1 X100.624 Y63.292 E16.66384
G1 X100.533 Y63.379 E16.66803
G1 X100.38 Y63.416 E16.67328
G1 X98.819 Y63.374 E16.72529
G1 X98.765 Y64.176 E16.75207
G1 X98.713 Y64.738 E16.77087
G1 X98.617 Y65.542 E16.79784
G1 X100.112 Y65.781 E16.84827
G1 X100.161 Y65.788 E16.84992
G1 X100.305 Y65.853 E16.85518
G1 X100.378 Y65.953 E16.85931
G1 X100.395 Y66.112 E16.86463
G1 X100.387 Y66.161 E16.86629
G1 X100.354 Y66.365 E16.87317
G1 X100.291 Y66.507 E16.87835
G1 X100.188 Y66.581 E16.88257
G1 X100.03 Y66.598 E16.88786
G1 X98.489 Y66.352 E16.93985
G1 X98.33 Y67.141 E16.96666
G1 X98.204 Y67.697 E16.98565
G1 X98.007 Y68.476 E17.01241
G1 X99.504 Y68.921 E17.06443
G1 X99.639 Y69.004 E17.06971
G1 X99.698 Y69.113 E17.07384
G1 X99.694 Y69.272 E17.07914
G1 X99.635 Y69.47 E17.08602
G1 X99.621 Y69.519 E17.08772
G1 X99.54 Y69.651 E17.09288
G1 X99.429 Y69.711 E17.09708
G1 X99.27 Y69.707 E17.10238
G1 X99.222 Y69.693 E17.10404
G1 X97.773 Y69.262 E17.1544
G1 X97.512 Y70.029 E17.18139
G1 X97.318 Y70.553 E17.2
G1 X97.018 Y71.306 E17.227
G1 X98.4 Y71.921 E17.27739
G1 X98.445 Y71.941 E17.27903
G1 X98.566 Y72.04 E17.28424
G1 X98.612 Y72.158 E17.28845
G1 X98.587 Y72.316 E17.29378
G1 X98.567 Y72.361 E17.29542
G1 X98.483 Y72.548 E17.30225
G1 X98.384 Y72.669 E17.30746
G1 X98.266 Y72.715 E17.31168
G1 X98.109 Y72.69 E17.31697
G1 X96.684 Y72.054 E17.36895
G1 X96.327 Y72.774 E17.39572
G1 X96.064 Y73.274 E17.41454
G1 X95.669 Y73.98 E17.44149
G1 X97.001 Y74.799 E17.49358
G1 X97.109 Y74.912 E17.49878
G1 X97.137 Y75.033 E17.50292
G1 X97.091 Y75.189 E17.50834
G1 X96.986 Y75.36 E17.51502
G1 X96.961 Y75.401 E17.51662
G1 X96.843 Y75.513 E17.52204
G1 X96.723 Y75.541 E17.52615
G1 X96.569 Y75.496 E17.53149
