;Generated by Cura LulzBot Edition GCodeWriter Version: 3.6.25
;FLAVOR:Marlin
;TIME:857
;Filament used: 0.343527m
;Layer height: 0.25
;Generated with Cura_SteamEngine 3.6.25-9
M82 ;absolute extrusion mode
;This G-Code has been generated specifically for the LulzBot Mini 2 with SE 0.5mm Tool Head
M73 P0                  ; clear GLCD progress bar
M75 					; Start GLCD Print Timer
G26 					; clear potential 'probe fail' condition
M107 					; disable fans
M420 S0                 ; disable leveling matrix
G90 					; absolute positioning
M82 					; set extruder to absolute mode
G92 E0 					; set extruder position to 0
M140 S60.0 ; start bed heating up
G28 					; home all axes
G0 X0 Y187 Z156 F200 			; move away from endstops
M117 Mini 2 Wiping...			; progress indicator message on LCD
M109 R140 	; soften filament before retraction
G1 E-15 F75 				; retract filament
M109 R140 	; wait for extruder to reach wiping temp
G1 X45 Y176 F11520 			; move above wiper pad
G1 Z0 F1200 				; push nozzle into wiper
G1 X45 Y178 Z-.5 F4000		; wiping
G1 X55 Y176 Z-.5 F4000		; wiping
G1 X45 Y177 Z0 F4000		; wiping
G1 X55 Y176 F4000		; wiping
G1 X45 Y178 F4000		; wiping
G1 X55 Y176 F4000		; wiping
G1 X45 Y178 F4000		; wiping
G1 X55 Y176 F4000		; wiping
G1 X60 Y178 F4000		; wiping
G1 X80 Y176 F4000		; wiping
G1 X60 Y178 F4000		; wiping
G1 X80 Y176 F4000		; wiping
G1 X60 Y178 F4000		; wiping
G1 X90 Y176 F4000		; wiping
G1 X80 Y178 F4000		; wiping
G1 X100 Y176 F4000		; wiping
G1 X80 Y178 F4000		; wiping
G1 X100 Y176 F4000		; wiping
G1 X80 Y178 F4000		; wiping
G1 X100 Y176 F4000		; wiping
G1 X110 Y178 F4000		; wiping
G1 X100 Y176 F4000		; wiping
G1 X110 Y178 F4000		; wiping
G1 X100 Y176 F4000		; wiping
G1 X110 Y178 F4000		; wiping
G1 X115 Y176 Z-0.5 F1000	; wiping
G1 Z10					; raise extruder
G28 X0 Y0				; home X and Y
M109 R140	; wait for extruder to reach probe temp
M204 S300				; set probing acceleration
G29					; start auto-leveling sequence
M420 S1                     ; enable leveling matrix
M425 Z			     		; use measured Z backlash for compensation
M425 Z F0		     		; turn off measured Z backlash compensation. (if activated in the quality settings, this command will automatically be ignored)
M204 S2000				; restore standard acceleration
G1 X5 Y15 Z10 F5000			; move up off last probe point
G4 S1					; pause
M400					; wait for moves to finish
M117 Heating...				; progress indicator message on LCD
M109 R210 ; wait for extruder to reach initial printing temp
M190 R60.0 ; wait for bed to reach printing temp
G1 Z2 E0 F75				; prime tiny bit of filment into the nozzle
M117 Mini 2 Printing...		; progress indicator message on LCD

M221 S100 T0
G92 E0
G1 F600 E-1.75
;LAYER_COUNT:19
;LAYER:0
M425 F1.0
M107
G0 F2625 X64.356 Y94.37 Z0.425
;TYPE:SKIRT
G1 F600 E0
G1 F900 X65.616 Y93.573 E0.04966
G1 X65.984 Y93.368 E0.06369
G1 X67.237 Y92.76 E0.11009
G1 X67.72 Y92.566 E0.12742
G1 X69.55 Y91.974 E0.19149
G1 X69.998 Y91.859 E0.2069
G1 X71.381 Y91.594 E0.25381
G1 X71.842 Y91.535 E0.26929
G1 X73.478 Y91.428 E0.3239
G1 X73.967 Y91.428 E0.34019
G1 X75.607 Y91.535 E0.39493
G1 X76.092 Y91.598 E0.41122
G1 X77.743 Y91.925 E0.46729
G1 X78.097 Y92.014 E0.47945
G1 X84.246 Y93.869 E0.69339
G1 X89.551 Y95.129 E0.87502
G1 X94.953 Y96.094 E1.05781
G1 X97.602 Y96.452 E1.14685
G1 X103.323 Y97.059 E1.33849
G1 X104.011 Y97.198 E1.36187
G1 X105.025 Y97.504 E1.39715
G1 X105.555 Y97.709 E1.41608
G1 X106.575 Y98.195 E1.45372
G1 X107.077 Y98.483 E1.47299
G1 X107.995 Y99.11 E1.51002
G1 X108.475 Y99.5 E1.53063
G1 X109.369 Y100.357 E1.57188
G1 X109.773 Y100.813 E1.59217
G1 X110.462 Y101.731 E1.63041
G1 X110.761 Y102.197 E1.64885
G1 X111.252 Y103.104 E1.6832
G1 X111.494 Y103.652 E1.70316
G1 X111.898 Y104.808 E1.74395
G1 X112.044 Y105.354 E1.76278
G1 X112.231 Y106.352 E1.7966
G1 X112.294 Y106.961 E1.81699
G1 X112.322 Y108.244 E1.85974
G1 X112.293 Y108.797 E1.87819
G1 X112.173 Y109.744 E1.90998
G1 X112.09 Y110.188 E1.92503
G1 X111.88 Y111.023 E1.95371
G1 X111.706 Y111.547 E1.9721
G1 X111.271 Y112.594 E2.00987
G1 X111.006 Y113.113 E2.02928
G1 X110.414 Y114.08 E2.06705
G1 X109.987 Y114.648 E2.09072
G1 X108.956 Y115.779 E2.14169
G1 X108.49 Y116.211 E2.16286
G1 X107.661 Y116.857 E2.19787
G1 X107.141 Y117.197 E2.21857
G1 X106.025 Y117.801 E2.26083
G1 X105.476 Y118.044 E2.28083
G1 X104.433 Y118.408 E2.31763
G1 X104.018 Y118.526 E2.332
G1 X103.292 Y118.689 E2.35679
G1 X102.872 Y118.759 E2.37097
G1 X95.355 Y119.567 E2.62281
G1 X89.967 Y120.503 E2.80497
G1 X87.369 Y121.068 E2.89354
G1 X84.75 Y121.716 E2.98341
G1 X78.068 Y123.714 E3.21572
G1 X77.727 Y123.799 E3.22743
G1 X76.107 Y124.122 E3.28245
G1 X75.652 Y124.184 E3.29775
G1 X74.682 Y124.256 E3.33015
G1 X74.359 Y124.266 E3.34091
G1 X72.696 Y124.246 E3.39631
G1 X72.131 Y124.196 E3.41521
G1 X69.832 Y123.817 E3.49282
G1 X69.237 Y123.668 E3.51325
G1 X67.654 Y123.131 E3.56894
G1 X67.12 Y122.902 E3.58829
G1 X65.242 Y121.919 E3.6589
G1 X64.818 Y121.66 E3.67545
G1 X63.63 Y120.821 E3.72389
G1 X63.293 Y120.553 E3.73824
G1 X62.222 Y119.595 E3.7861
G1 X61.839 Y119.198 E3.80448
G1 X60.494 Y117.581 E3.87454
G1 X60.178 Y117.141 E3.89258
G1 X59.301 Y115.708 E3.94855
G1 X59.094 Y115.32 E3.96319
G1 X58.498 Y114.027 E4.01062
G1 X58.345 Y113.637 E4.02458
G1 X57.905 Y112.31 E4.07114
G1 X57.794 Y111.903 E4.0852
G1 X57.598 Y110.972 E4.11689
G1 X57.564 Y110.783 E4.12329
G1 X57.413 Y109.826 E4.15556
G1 X57.371 Y109.409 E4.16952
G1 X57.298 Y107.767 E4.22427
G1 X57.308 Y107.271 E4.24079
G1 X57.456 Y105.588 E4.29707
G1 X57.531 Y105.107 E4.31329
G1 X57.883 Y103.516 E4.36757
G1 X58.019 Y103.046 E4.38386
G1 X58.591 Y101.471 E4.43968
G1 X58.788 Y101.022 E4.45601
G1 X59.544 Y99.567 E4.51063
G1 X59.767 Y99.193 E4.52514
G1 X60.557 Y98.027 E4.57205
G1 X60.842 Y97.658 E4.58758
G1 X61.936 Y96.41 E4.64286
G1 X62.349 Y96.006 E4.66211
G1 X63.954 Y94.663 E4.73182
G1 X64.356 Y94.37 E4.74839
G0 F2625 X64.624 Y94.792
G1 F900 X65.884 Y93.995 E4.79805
G1 X66.202 Y93.818 E4.81018
G1 X67.455 Y93.21 E4.85657
G1 X67.874 Y93.042 E4.87161
G1 X69.704 Y92.45 E4.93567
G1 X70.092 Y92.35 E4.94902
G1 X71.475 Y92.085 E4.99593
G1 X71.875 Y92.034 E5.00936
G1 X73.511 Y91.927 E5.06397
G1 X73.935 Y91.927 E5.07809
G1 X75.575 Y92.034 E5.13284
G1 X75.994 Y92.089 E5.14692
G1 X77.645 Y92.416 E5.20298
G1 X77.953 Y92.492 E5.21355
G1 X84.139 Y94.358 E5.42878
G1 X89.452 Y95.62 E5.61068
G1 X94.846 Y96.584 E5.7932
G1 X97.549 Y96.949 E5.88406
G1 X103.271 Y97.556 E6.07573
G1 X103.867 Y97.677 E6.09599
G1 X104.881 Y97.983 E6.13127
G1 X105.34 Y98.16 E6.14765
G1 X106.36 Y98.646 E6.18529
G1 X106.795 Y98.896 E6.202
G1 X107.713 Y99.523 E6.23903
G1 X108.129 Y99.861 E6.25689
G1 X109.023 Y100.718 E6.29814
G1 X109.373 Y101.113 E6.31572
G1 X110.062 Y102.031 E6.35395
G1 X110.321 Y102.435 E6.36994
G1 X110.812 Y103.342 E6.40429
G1 X111.022 Y103.817 E6.42159
G1 X111.426 Y104.973 E6.46238
G1 X111.552 Y105.446 E6.47869
G1 X111.739 Y106.444 E6.51251
G1 X111.794 Y106.972 E6.53019
G1 X111.822 Y108.255 E6.57294
G1 X111.797 Y108.735 E6.58895
G1 X111.677 Y109.682 E6.62075
G1 X111.605 Y110.066 E6.63376
G1 X111.395 Y110.901 E6.66244
G1 X111.244 Y111.355 E6.67838
G1 X110.809 Y112.402 E6.71615
G1 X110.58 Y112.852 E6.73297
G1 X109.988 Y113.819 E6.77073
G1 X109.618 Y114.311 E6.79124
G1 X108.587 Y115.442 E6.84222
G1 X108.183 Y115.817 E6.86058
G1 X107.354 Y116.463 E6.89559
G1 X106.903 Y116.757 E6.91352
G1 X105.787 Y117.361 E6.95579
G1 X105.311 Y117.572 E6.97314
G1 X104.268 Y117.936 E7.00993
G1 X103.909 Y118.038 E7.02236
G1 X103.183 Y118.201 E7.04715
G1 X102.818 Y118.261 E7.05947
G1 X95.292 Y119.07 E7.31161
G1 X89.896 Y120.008 E7.49405
G1 X87.248 Y120.584 E7.58432
G1 X84.613 Y121.235 E7.67473
G1 X77.925 Y123.235 E7.90726
G1 X77.629 Y123.308 E7.91741
G1 X76.009 Y123.631 E7.97244
G1 X75.615 Y123.685 E7.98568
G1 X74.645 Y123.757 E8.01808
G1 X74.365 Y123.766 E8.02741
G1 X72.702 Y123.746 E8.08281
G1 X72.212 Y123.703 E8.0992
G1 X69.913 Y123.324 E8.17681
G1 X69.398 Y123.195 E8.1945
G1 X67.815 Y122.658 E8.25018
G1 X67.352 Y122.459 E8.26697
G1 X65.474 Y121.476 E8.33757
G1 X65.106 Y121.252 E8.35192
G1 X63.918 Y120.413 E8.40037
G1 X63.626 Y120.18 E8.41282
G1 X62.555 Y119.222 E8.46068
G1 X62.223 Y118.878 E8.47661
G1 X60.878 Y117.261 E8.54667
G1 X60.605 Y116.88 E8.56228
G1 X59.728 Y115.447 E8.61824
G1 X59.548 Y115.11 E8.63097
G1 X58.952 Y113.817 E8.67839
G1 X58.819 Y113.48 E8.69046
G1 X58.379 Y112.153 E8.73703
G1 X58.284 Y111.8 E8.74921
G1 X58.088 Y110.869 E8.7809
G1 X58.058 Y110.706 E8.78642
G1 X57.907 Y109.749 E8.81869
G1 X57.87 Y109.386 E8.83085
G1 X57.797 Y107.744 E8.8856
G1 X57.806 Y107.315 E8.89989
G1 X57.954 Y105.632 E8.95617
G1 X58.019 Y105.215 E8.97023
G1 X58.371 Y103.624 E9.02451
G1 X58.489 Y103.217 E9.03862
G1 X59.061 Y101.642 E9.09444
G1 X59.232 Y101.253 E9.10859
G1 X59.988 Y99.798 E9.16321
G1 X60.181 Y99.473 E9.1758
G1 X60.971 Y98.307 E9.22272
G1 X61.218 Y97.988 E9.23616
G1 X62.312 Y96.74 E9.29144
G1 X62.67 Y96.389 E9.30814
G1 X64.275 Y95.046 E9.37785
G1 X64.624 Y94.792 E9.39223
G1 F600 E7.64223
G0 F2625 X73.717 Y94.494
G0 X75.459 Y94.608
G0 X77.174 Y94.947
G0 X78.832 Y95.51
G0 X80.398 Y96.28
G0 X81.855 Y97.253
G0 X83.17 Y98.403
G0 X83.823 Y99.146
G0 X87.563 Y103.77
;TYPE:SUPPORT
G1 F600 E9.39223
G1 F900 X93.297 Y103.77 E9.58323
G1 X92.754 Y105.084 E9.63059
G1 X92.427 Y106.461 E9.67773
G1 X92.317 Y107.872 E9.72488
G1 X92.43 Y109.285 E9.77209
G1 X92.763 Y110.66 E9.81922
G1 X93.295 Y111.939 E9.86536
G1 X87.567 Y111.939 E10.05616
G1 X87.707 Y111.52 E10.07088
G1 X88.061 Y109.697 E10.13274
G1 X88.179 Y107.85 E10.19439
G1 X88.058 Y106.001 E10.25611
G1 X87.702 Y104.182 E10.31785
G1 X87.563 Y103.77 E10.33234
G0 F2625 X88.351 Y103.97
G1 F900 X88.351 Y107.408 E10.44686
G0 F2625 X88.303 Y106.688
G1 F900 X92.208 Y106.688 E10.57693
G0 F2625 X92.155 Y108.355
G1 F900 X88.348 Y108.355 E10.70375
G0 F2625 X88.351 Y108.296
G1 F900 X88.351 Y111.739 E10.81843
G0 F2625 X88.202 Y110.022
G1 F900 X92.404 Y110.022 E10.9584
G0 F2625 X92.975 Y111.689
G1 F900 X87.862 Y111.689 E11.12872
G0 F2625 X90.018 Y111.739
G1 F900 X90.018 Y103.97 E11.38751
G0 F2625 X91.685 Y103.97
G1 F900 X91.685 Y111.739 E11.6463
G0 F2625 X92.563 Y105.021
G1 F900 X88.069 Y105.021 E11.79599
G1 F600 E10.04599
;MESH:
G0 F2625 X85.419 Y105.538
G0 X84.434 Y111.184
G0 X82.979 Y114.942
G0 X75.931 Y116.382
G0 X71.838 Y117.102
G0 X69.02 Y114.358
G0 X67.623 Y110.53
G0 X67.553 Y110.46
;TYPE:WALL-INNER
G1 F600 E11.79599
G1 F900 X67.553 Y110.325 E11.80049
G1 X67.553 Y109.498 E11.82804
G1 X67.553 Y109.234 E11.83683
G1 X67.553 Y107.475 E11.89542
G1 X67.507 Y107.475 E11.89696
G1 X67.228 Y107.475 E11.90625
G1 X67.387 Y107.313 E11.90758
G1 X67.507 Y107.19 E11.90989
G1 X67.507 Y105.886 E11.95333
G1 X66.93 Y105.275 E11.98132
G1 X67.553 Y104.685 E12.00991
G1 X67.553 Y103.316 E12.05551
G1 X67.322 Y103.071 E12.06672
G1 X67.116 Y102.853 E12.07672
G1 X67.553 Y102.853 E12.08356
G1 X67.553 Y99.912 E12.18153
G1 X65.277 Y99.912 E12.25734
G1 X64.838 Y99.912 E12.27196
G1 X65.277 Y99.412 E12.28571
G1 X66.451 Y98.382 E12.33773
G1 X67.758 Y97.509 E12.39009
G1 X69.151 Y96.822 E12.44183
G1 X70.636 Y96.317 E12.49408
G1 X72.163 Y96.014 E12.54593
G1 X73.725 Y95.911 E12.59808
G1 X75.287 Y96.014 E12.65022
G1 X76.814 Y96.317 E12.70208
G1 X78.299 Y96.822 E12.75432
G1 X79.692 Y97.509 E12.80606
G1 X80.203 Y97.851 E12.82654
G1 X80.229 Y97.868 E12.82758
G1 X80.256 Y97.886 E12.82866
G1 X80.348 Y97.947 E12.83234
G1 X80.072 Y98.103 E12.83837
G1 X79.996 Y98.28 E12.84478
G1 X79.965 Y98.286 E12.84583
G1 X71.818 Y99.972 E13.12296
G1 X68.566 Y103.101 E13.27329
G1 X69.442 Y108.4 E13.4522
G1 X70.142 Y108.679 E13.4773
G1 X70.196 Y108.7 E13.47923
G1 X73.926 Y110.186 E13.61297
G1 X75.001 Y109.944 E13.64968
G1 X75.002 Y109.943 E13.64972
G1 X75.247 Y109.889 E13.65808
G1 X75.299 Y110.135 E13.66349
G1 X75.78 Y112.374 E13.73977
G1 X74.877 Y114.711 E13.82323
G1 X72.368 Y115.25 E13.90871
G1 X70.667 Y113.468 E13.99077
G1 X70.089 Y110.774 E14.08255
G1 X70.205 Y110.666 E14.08783
G1 X70.35 Y109.846 E14.11557
G1 X70 Y109.154 E14.1414
G1 X69.974 Y109.102 E14.14325
G1 X69.267 Y108.754 E14.16563
G1 X69.228 Y108.734 E14.16709
G1 X68.41 Y108.884 E14.19479
G1 X68.025 Y109.304 E14.21377
G1 X67.847 Y109.498 E14.22085
G1 X67.762 Y110.325 E14.23483
G1 X67.958 Y110.652 E14.24753
G1 X68.19 Y111.038 E14.26253
G1 X68.362 Y111.108 E14.26872
G1 X69.056 Y114.341 E14.37887
G1 X71.849 Y117.064 E14.5088
G1 X75.909 Y116.349 E14.64612
G1 X76.886 Y114.424 E14.71803
G1 X77.047 Y114.106 E14.7299
G1 X77.29 Y114.367 E14.73691
G1 X78.53 Y115.694 E14.79741
G1 X82.722 Y114.953 E14.93921
G1 X82.954 Y114.912 E14.94706
G1 X83.23 Y114.196 E14.97262
G1 X84.395 Y111.181 E15.08029
G1 X83.829 Y107.978 E15.18863
G1 X83.937 Y107.851 E15.19418
G1 X84.019 Y107.109 E15.21905
G1 X83.671 Y106.447 E15.24396
G1 X83.013 Y106.095 E15.26882
G1 X82.274 Y106.167 E15.29355
G1 X81.696 Y106.643 E15.3185
G1 X81.678 Y106.704 E15.32061
G1 X74.056 Y108.2 E15.57935
G1 X70.912 Y106.99 E15.69157
G1 X70.394 Y103.862 E15.79718
G1 X72.626 Y101.716 E15.90032
G1 X80.276 Y99.996 E16.16151
G1 X80.351 Y100.088 E16.16546
G1 X81.165 Y100.287 E16.19337
G1 X81.933 Y99.95 E16.22131
G1 X82.038 Y99.762 E16.22848
G1 X82.21 Y99.453 E16.24026
G1 X82.443 Y99.719 E16.24722
G1 X83.204 Y100.586 E16.28565
G1 X84.074 Y101.889 E16.33784
G1 X84.762 Y103.286 E16.38971
G1 X85.239 Y104.68 E16.43879
G1 X85.278 Y104.814 E16.44343
G1 X85.575 Y106.333 E16.49499
G1 X85.674 Y107.859 E16.54593
G1 X85.576 Y109.383 E16.5968
G1 X85.279 Y110.908 E16.64855
G1 X84.763 Y112.434 E16.70221
G1 X84.074 Y113.831 E16.7541
G1 X83.655 Y114.458 E16.77922
G1 X83.229 Y115.096 E16.80045
G1 X83.204 Y115.134 E16.80197
G1 X83.049 Y115.311 E16.80858
G1 X82.173 Y116.308 E16.85278
G1 X80.999 Y117.339 E16.90483
G1 X79.696 Y118.209 E16.95702
G1 X78.296 Y118.899 E17.00901
G1 X76.816 Y119.402 E17.06108
G1 X75.286 Y119.707 E17.11305
G1 X73.725 Y119.809 E17.16515
G1 X72.164 Y119.707 E17.21726
G1 X70.634 Y119.402 E17.26923
G1 X69.154 Y118.899 E17.3213
G1 X67.754 Y118.209 E17.37329
G1 X66.533 Y117.394 E17.42219
G1 X66.451 Y117.339 E17.42548
G1 X66.075 Y117.009 E17.44214
G1 X66.451 Y117.009 E17.44551
G1 X66.79 Y117.009 E17.45533
G1 X66.79 Y116.598 E17.46902
G1 X67.553 Y116.598 E17.49444
G1 X67.553 Y111.534 E17.66312
G1 X67.507 Y111.534 E17.66465
G1 X67.507 Y110.842 E17.6877
G1 X67.507 Y110.46 E17.69783
G1 X67.553 Y110.46 E17.69881
G0 F2625 X67.623 Y110.53
G0 X66.989 Y110.488
G0 X64.192 Y109.973
G0 X64.15 Y107.405
G0 X64.22 Y107.475
G1 F900 X64.22 Y114.27 E17.92515
G1 X64.22 Y114.271 E17.92519
G1 X64.22 Y115.094 E17.9526
G1 X63.763 Y114.409 E17.96691
G1 X63.374 Y113.827 E17.99023
G1 X62.687 Y112.434 E18.04196
G1 X62.182 Y110.947 E18.09428
G1 X61.878 Y109.416 E18.14627
G1 X61.776 Y107.859 E18.19824
G1 X61.879 Y106.299 E18.25032
G1 X62.184 Y104.768 E18.30232
G1 X62.687 Y103.286 E18.35445
G1 X63.374 Y101.893 E18.40619
G1 X63.763 Y101.311 E18.42951
G1 X64.22 Y100.626 E18.45694
G1 X64.22 Y101.449 E18.47124
G1 X64.22 Y101.45 E18.47127
G1 X64.22 Y105.473 E18.60528
G1 X64.629 Y105.473 E18.6189
G1 X64.415 Y105.677 E18.6209
G1 X64.22 Y105.862 E18.62652
G1 X64.22 Y107.131 E18.66879
G1 X64.392 Y107.312 E18.67711
G1 X64.546 Y107.475 E18.68458
G1 X64.22 Y107.475 E18.689
G0 F2625 X64.72 Y107.975
;TYPE:WALL-OUTER
G1 F900 X64.72 Y108.8 E18.71648
G1 X65.446 Y108.8 E18.74067
G1 X65.446 Y109.102 E18.75073
G1 X64.74 Y109.142 E18.76579
G1 X64.72 Y109.144 E18.76646
G1 X64.72 Y109.96 E18.79364
G1 X65.765 Y109.96 E18.82845
G1 X65.833 Y109.874 E18.8321
G1 X65.864 Y109.835 E18.83376
G1 X65.892 Y109.88
G1 X65.942 Y109.96 E18.83528
G1 X67.053 Y109.96 E18.87229
G1 X67.053 Y109.13 E18.89994
G1 X66.373 Y109.13 E18.92259
G1 X66.373 Y108.827 E18.93268
G1 X67.053 Y108.827 E18.94641
G1 X67.053 Y107.975 E18.97479
G1 X66.529 Y107.975 E18.99224
G1 X66.527 Y107.975 E18.99231
G1 X65.236 Y107.975 E19.03531
G1 X65.234 Y107.975 E19.03538
G1 X64.72 Y107.975 E19.0525
G0 F2625 X64.72 Y108.225
G1 F600 E17.3025
G0 F2625 X64.932 Y107.875
G0 X65.709 Y107.49
G0 X65.919 Y106.877
G0 X65.91 Y106.809
G0 X65.962 Y106.597
G0 X66.04 Y106.637
G1 F600 E19.0525
G1 F900 X65.965 Y106.732 E19.05653
G1 X65.909 Y106.803 E19.05954
