;Generated by Cura LulzBot Edition GCodeWriter Version: 3.6.25
;FLAVOR:Marlin
;TIME:2665
;Filament used: 0.791341m
;Layer height: 0.25
;Generated with Cura_SteamEngine 3.6.25-9
M82 ;absolute extrusion mode
;This G-Code has been generated specifically for the LulzBot Mini 2 with SE 0.5mm Tool Head
M73 P0                  ; clear GLCD progress bar
M75 					; Start GLCD Print Timer
G26 					; clear potential 'probe fail' condition
M107 					; disable fans
M420 S0                 ; disable leveling matrix
G90 					; absolute positioning
M82 					; set extruder to absolute mode
G92 E0 					; set extruder position to 0
M140 S60.0 ; start bed heating up
G28 					; home all axes
G0 X0 Y187 Z156 F200 			; move away from endstops
M117 Mini 2 Wiping...			; progress indicator message on LCD
M109 R140 	; soften filament before retraction
G1 E-15 F75 				; retract filament
M109 R140 	; wait for extruder to reach wiping temp
G1 X45 Y176 F11520 			; move above wiper pad
G1 Z0 F1200 				; push nozzle into wiper
G1 X45 Y178 Z-.5 F4000		; wiping
G1 X55 Y176 Z-.5 F4000		; wiping
G1 X45 Y177 Z0 F4000		; wiping
G1 X55 Y176 F4000		; wiping
G1 X45 Y178 F4000		; wiping
G1 X55 Y176 F4000		; wiping
G1 X45 Y178 F4000		; wiping
G1 X55 Y176 F4000		; wiping
G1 X60 Y178 F4000		; wiping
G1 X80 Y176 F4000		; wiping
G1 X60 Y178 F4000		; wiping
G1 X80 Y176 F4000		; wiping
G1 X60 Y178 F4000		; wiping
G1 X90 Y176 F4000		; wiping
G1 X80 Y178 F4000		; wiping
G1 X100 Y176 F4000		; wiping
G1 X80 Y178 F4000		; wiping
G1 X100 Y176 F4000		; wiping
G1 X80 Y178 F4000		; wiping
G1 X100 Y176 F4000		; wiping
G1 X110 Y178 F4000		; wiping
G1 X100 Y176 F4000		; wiping
G1 X110 Y178 F4000		; wiping
G1 X100 Y176 F4000		; wiping
G1 X110 Y178 F4000		; wiping
G1 X115 Y176 Z-0.5 F1000	; wiping
G1 Z10					; raise extruder
G28 X0 Y0				; home X and Y
M109 R140	; wait for extruder to reach probe temp
M204 S300				; set probing acceleration
G29					; start auto-leveling sequence
M420 S1                     ; enable leveling matrix
M425 Z			     		; use measured Z backlash for compensation
M425 Z F0		     		; turn off measured Z backlash compensation. (if activated in the quality settings, this command will automatically be ignored)
M204 S2000				; restore standard acceleration
G1 X5 Y15 Z10 F5000			; move up off last probe point
G4 S1					; pause
M400					; wait for moves to finish
M117 Heating...				; progress indicator message on LCD
M109 R210 ; wait for extruder to reach initial printing temp
M190 R60.0 ; wait for bed to reach printing temp
G1 Z2 E0 F75				; prime tiny bit of filment into the nozzle
M117 Mini 2 Printing...		; progress indicator message on LCD

M221 S100 T0
G92 E0
G1 F600 E-1.75
;LAYER_COUNT:74
;LAYER:0
M425 F1.0
M107
G0 F2625 X51.099 Y54.047 Z0.425
;TYPE:SKIRT
G1 F600 E0
G1 F900 X51.882 Y53.36 E0.0347
G1 X52.473 Y52.935 E0.05895
G1 X53.402 Y52.396 E0.09472
G1 X53.853 Y52.174 E0.11147
G1 X58.882 Y50.098 E0.2927
G1 X63.809 Y47.747 E0.47454
G1 X68.59 Y45.126 E0.65616
G1 X72.994 Y42.405 E0.8286
G1 X73.483 Y42.15 E0.84697
G1 X74.115 Y41.878 E0.86989
G1 X74.717 Y41.678 E0.89102
G1 X75.752 Y41.428 E0.92649
G1 X76.332 Y41.335 E0.94606
G1 X77.29 Y41.258 E0.97807
G1 X77.949 Y41.263 E1.00002
G1 X79.029 Y41.367 E1.03617
G1 X79.691 Y41.492 E1.05861
G1 X80.61 Y41.752 E1.09042
G1 X80.969 Y41.873 E1.10304
G1 X83.831 Y43.005 E1.20556
G1 X89.01 Y44.813 E1.38828
G1 X94.276 Y46.323 E1.57077
G1 X96.901 Y46.957 E1.66072
G1 X101.601 Y47.91 E1.82046
G1 X101.918 Y47.988 E1.83134
G1 X102.636 Y48.2 E1.85628
G1 X103.162 Y48.4 E1.87502
G1 X104.195 Y48.883 E1.91301
G1 X104.673 Y49.15 E1.93124
G1 X104.998 Y49.391 E1.94472
G1 X106.105 Y50.307 E1.99258
G1 X106.5 Y50.686 E2.01082
G1 X106.759 Y51.008 E2.02458
G1 X107.561 Y52.124 E2.07036
G1 X107.847 Y52.59 E2.08857
G1 X107.992 Y52.904 E2.1001
G1 X111.201 Y60.825 E2.38478
G1 X113.562 Y65.734 E2.56623
G1 X116.188 Y70.488 E2.74714
G1 X119.62 Y76.047 E2.96476
G1 X119.962 Y76.761 E2.99113
G1 X120.314 Y77.751 E3.02613
G1 X120.486 Y78.427 E3.04936
G1 X120.634 Y79.372 E3.08122
G1 X120.679 Y79.927 E3.09977
G1 X120.685 Y80.816 E3.12939
G1 X120.636 Y81.446 E3.15044
G1 X120.451 Y82.577 E3.18861
G1 X120.318 Y83.127 E3.20746
G1 X120.126 Y83.72 E3.22822
G1 X119.891 Y84.285 E3.2486
G1 X116.337 Y91.173 E3.50679
G1 X115.219 Y93.585 E3.59534
G1 X113.118 Y98.671 E3.77865
G1 X111.825 Y102.084 E3.90022
G1 X111.478 Y102.774 E3.92595
G1 X110.891 Y103.693 E3.96227
G1 X110.404 Y104.304 E3.9883
G1 X109.613 Y105.108 E4.02587
G1 X109.202 Y105.469 E4.04409
G1 X108.813 Y105.727 E4.05964
G1 X103.538 Y108.767 E4.26244
G1 X98.946 Y111.702 E4.44398
G1 X94.516 Y114.899 E4.62596
G1 X89.829 Y118.712 E4.82722
G1 X89.576 Y118.901 E4.83774
G1 X88.828 Y119.411 E4.8679
G1 X88.218 Y119.748 E4.89111
G1 X87.16 Y120.211 E4.92958
G1 X86.517 Y120.426 E4.95216
G1 X85.842 Y120.585 E4.97526
G1 X85.169 Y120.68 E4.9979
G1 X84.25 Y120.726 E5.02855
G1 X83.501 Y120.689 E5.05353
G1 X82.242 Y120.498 E5.09595
G1 X81.518 Y120.313 E5.12084
G1 X80.655 Y119.998 E5.15144
G1 X80.239 Y119.816 E5.16657
G1 X73.803 Y116.538 E5.40716
G1 X68.832 Y114.385 E5.58761
G1 X63.69 Y112.498 E5.77006
G1 X58.384 Y110.83 E5.95533
G1 X57.639 Y110.503 E5.98243
G1 X56.565 Y109.885 E6.02371
G1 X56.126 Y109.59 E6.04133
G1 X55.403 Y109.025 E6.07189
G1 X54.984 Y108.643 E6.09078
G1 X54.335 Y107.955 E6.12229
G1 X53.99 Y107.531 E6.14049
G1 X53.831 Y107.284 E6.15028
G1 X52.179 Y104.477 E6.25877
G1 X49.267 Y99.843 E6.44108
G1 X46.09 Y95.368 E6.62389
G1 X42.748 Y91.053 E6.80569
G1 X42.446 Y90.597 E6.82391
G1 X42.299 Y90.309 E6.83468
G1 X41.983 Y89.614 E6.86011
G1 X41.761 Y88.981 E6.88246
G1 X41.486 Y87.893 E6.91984
G1 X41.391 Y87.351 E6.93817
G1 X41.332 Y86.767 E6.95772
G1 X41.319 Y86.178 E6.97735
G1 X41.38 Y85.102 E7.01324
G1 X41.507 Y84.323 E7.03954
G1 X41.785 Y83.308 E7.07459
G1 X41.926 Y82.892 E7.08922
G1 X42.984 Y80.279 E7.18313
G1 X44.809 Y75.143 E7.36469
G1 X46.349 Y69.887 E7.54713
G1 X47.004 Y67.247 E7.63773
G1 X47.574 Y64.621 E7.72724
G1 X48.592 Y58.737 E7.92615
G1 X48.702 Y58.275 E7.94197
G1 X49.004 Y57.292 E7.97623
G1 X49.203 Y56.782 E7.99446
G1 X49.436 Y56.363 E8.01043
G1 X50.419 Y54.836 E8.07093
G1 X50.748 Y54.399 E8.08915
G1 X51.099 Y54.047 E8.10571
G0 F2625 X51.429 Y54.423
G1 F900 X52.212 Y53.736 E8.1404
G1 X52.724 Y53.368 E8.16141
G1 X53.653 Y52.829 E8.19718
G1 X54.044 Y52.636 E8.21171
G1 X59.095 Y50.55 E8.39374
G1 X64.02 Y48.201 E8.5755
G1 X68.847 Y45.554 E8.75888
G1 X73.257 Y42.83 E8.93154
G1 X73.68 Y42.61 E8.94742
G1 X74.312 Y42.338 E8.97034
G1 X74.834 Y42.164 E8.98867
G1 X75.869 Y41.914 E9.02414
G1 X76.372 Y41.833 E9.04111
G1 X77.33 Y41.756 E9.07312
G1 X77.902 Y41.761 E9.09218
G1 X78.982 Y41.865 E9.12832
G1 X79.555 Y41.973 E9.14774
G1 X80.474 Y42.233 E9.17956
G1 X80.785 Y42.338 E9.19049
G1 X83.676 Y43.482 E9.29406
G1 X88.85 Y45.287 E9.47659
G1 X94.142 Y46.805 E9.65998
G1 X96.786 Y47.444 E9.75059
G1 X101.502 Y48.4 E9.91087
G1 X101.776 Y48.468 E9.92028
G1 X102.494 Y48.68 E9.94522
G1 X102.951 Y48.853 E9.96149
G1 X103.984 Y49.336 E9.99948
G1 X104.427 Y49.587 E10.01644
G1 X104.679 Y49.776 E10.02693
G1 X105.786 Y50.692 E10.07479
G1 X106.152 Y51.047 E10.09178
G1 X106.353 Y51.299 E10.10251
G1 X107.155 Y52.415 E10.14829
G1 X107.419 Y52.851 E10.16527
G1 X107.528 Y53.092 E10.17408
G1 X110.742 Y61.025 E10.4592
G1 X113.106 Y65.941 E10.6409
G1 X115.773 Y70.768 E10.8246
G1 X119.194 Y76.31 E11.04154
G1 X119.491 Y76.928 E11.06438
G1 X119.843 Y77.918 E11.09938
G1 X119.992 Y78.504 E11.11952
G1 X120.14 Y79.449 E11.15139
G1 X120.179 Y79.93 E11.16746
G1 X120.185 Y80.819 E11.19707
G1 X120.142 Y81.366 E11.21535
G1 X119.957 Y82.497 E11.25353
G1 X119.842 Y82.973 E11.26984
G1 X119.65 Y83.566 E11.2906
G1 X119.446 Y84.055 E11.30825
G1 X115.904 Y90.919 E11.56554
G1 X114.759 Y93.389 E11.65623
G1 X112.643 Y98.513 E11.84089
G1 X111.357 Y101.907 E11.96179
G1 X111.057 Y102.504 E11.98404
G1 X110.47 Y103.423 E12.02037
G1 X110.048 Y103.953 E12.04294
G1 X109.257 Y104.757 E12.08051
G1 X108.872 Y105.091 E12.09748
G1 X108.563 Y105.294 E12.1098
G1 X103.269 Y108.345 E12.31333
G1 X98.661 Y111.29 E12.4955
G1 X94.225 Y114.492 E12.67774
G1 X89.514 Y118.324 E12.88002
G1 X89.294 Y118.488 E12.88916
G1 X88.546 Y118.998 E12.91932
G1 X88.018 Y119.29 E12.93941
G1 X86.96 Y119.753 E12.97788
G1 X86.402 Y119.939 E12.99748
G1 X85.727 Y120.098 E13.02058
G1 X85.144 Y120.181 E13.04019
G1 X84.225 Y120.227 E13.07084
G1 X83.576 Y120.194 E13.09249
G1 X82.317 Y120.003 E13.13491
G1 X81.69 Y119.843 E13.15646
G1 X80.827 Y119.528 E13.18706
G1 X80.466 Y119.371 E13.20018
G1 X74.019 Y116.087 E13.44118
G1 X69.014 Y113.92 E13.62286
G1 X63.842 Y112.022 E13.80637
G1 X58.534 Y110.353 E13.99172
G1 X57.888 Y110.07 E14.01521
G1 X56.814 Y109.452 E14.05649
G1 X56.434 Y109.196 E14.07175
G1 X55.711 Y108.631 E14.10232
G1 X55.348 Y108.3 E14.11868
G1 X54.699 Y107.612 E14.15018
G1 X54.262 Y107.03 E14.17443
G1 X52.617 Y104.235 E14.28246
G1 X49.68 Y99.56 E14.46637
G1 X46.485 Y95.061 E14.65017
G1 X43.144 Y90.747 E14.83193
G1 X42.754 Y90.102 E14.85704
G1 X42.438 Y89.407 E14.88247
G1 X42.246 Y88.858 E14.90184
G1 X41.971 Y87.77 E14.93922
G1 X41.888 Y87.301 E14.95509
G1 X41.829 Y86.717 E14.97464
G1 X41.818 Y86.206 E14.99167
G1 X41.879 Y85.13 E15.02757
G1 X41.989 Y84.455 E15.05035
G1 X42.267 Y83.44 E15.0854
G1 X42.39 Y83.079 E15.09811
G1 X43.45 Y80.461 E15.19219
G1 X45.285 Y75.299 E15.37468
G1 X46.836 Y70.004 E15.55847
G1 X47.49 Y67.368 E15.64894
G1 X48.065 Y64.719 E15.73923
G1 X49.085 Y58.822 E15.93858
G1 X49.18 Y58.422 E15.95227
G1 X49.482 Y57.439 E15.98653
G1 X49.67 Y56.965 E16.00351
G1 X49.856 Y56.634 E16.01616
G1 X50.839 Y55.107 E16.07665
G1 X51.148 Y54.701 E16.09365
G1 X51.429 Y54.423 E16.10682
G1 F600 E14.35682
;MESH:
G0 F2625 X54.122 Y55.519
G0 X55.161 Y56.948
G0 X58.21 Y55.861
G0 X62.377 Y58.811
G0 X62.903 Y67.37
G0 X63.184 Y68.798
G0 X63.499 Y69.638
G0 X63.76 Y70.04
G0 X64.532 Y70.768
G0 X65.066 Y71.094
G0 X65.702 Y71.347
G0 X89.429 Y74.706
G0 X89.525 Y74.686
;TYPE:WALL-INNER
G1 F600 E16.10682
G1 F900 X89.76 Y74.824 E16.11589
G1 X90.315 Y75.149 E16.13732
G1 X90.464 Y75.214 E16.14273
G1 X90.596 Y75.291 E16.14782
G1 X90.722 Y75.345 E16.15239
G1 X90.87 Y75.446 E16.15836
G1 X91.195 Y75.583 E16.17011
G1 X91.442 Y75.642 E16.17857
G1 X92.367 Y75.664 E16.20939
G1 X92.601 Y75.692 E16.21724
G1 X92.856 Y75.734 E16.22585
G1 X93.171 Y75.798 E16.23655
G1 X94.383 Y75.981 E16.27738
G1 X95.279 Y76.137 E16.30768
G1 X95.829 Y76.255 E16.32642
G1 X96.399 Y76.395 E16.34597
G1 X96.922 Y76.548 E16.36412
G1 X97.501 Y76.738 E16.38442
G1 X98.684 Y77.156 E16.42621
G1 X99.278 Y77.38 E16.44736
G1 X99.916 Y77.64 E16.47031
G1 X100.475 Y77.897 E16.4908
G1 X100.982 Y78.163 E16.50987
G1 X101.483 Y78.469 E16.52943
G1 X102.021 Y78.833 E16.55106
G1 X102.567 Y79.241 E16.57377
G1 X102.963 Y79.571 E16.59094
G1 X103.306 Y79.908 E16.60696
G1 X103.637 Y80.284 E16.62364
G1 X103.998 Y80.715 E16.64237
G1 X104.375 Y81.124 E16.6609
G1 X104.762 Y81.517 E16.67927
G1 X105.168 Y81.893 E16.6977
G1 X105.574 Y82.256 E16.71585
G1 X106.376 Y82.933 E16.75081
G1 X106.806 Y83.281 E16.76923
G1 X107.26 Y83.622 E16.78815
G1 X107.712 Y83.892 E16.80568
G1 X108.53 Y84.309 E16.83627
G1 X108.957 Y84.495 E16.85178
G1 X109.376 Y84.629 E16.86644
G1 X109.795 Y84.721 E16.88073
G1 X110.253 Y84.79 E16.89615
G1 X110.729 Y84.835 E16.91208
G1 X111.17 Y84.833 E16.92677
G1 X111.604 Y84.794 E16.94129
G1 X112.08 Y84.723 E16.95732
G1 X112.592 Y84.62 E16.97471
G1 X113.099 Y84.478 E16.99225
G1 X113.21 Y84.44 E16.99616
G1 X113.582 Y84.314 E17.00924
G1 X113.677 Y84.275 E17.01266
G1 X114.03 Y84.128 E17.0254
G1 X114.047 Y84.119 E17.02604
G1 X114.455 Y83.902 E17.04143
G1 X114.847 Y83.611 E17.0577
G1 X115.2 Y83.231 E17.07497
G1 X115.211 Y83.214 E17.07565
G1 X115.496 Y82.759 E17.09353
G1 X115.501 Y82.748 E17.09393
G1 X115.736 Y82.263 E17.11189
G1 X115.918 Y81.773 E17.1293
G1 X115.925 Y81.756 E17.12991
G1 X116.054 Y81.284 E17.14621
G1 X116.066 Y81.242 E17.14766
G1 X116.142 Y80.763 E17.16382
G1 X116.147 Y80.737 E17.1647
G1 X116.179 Y80.253 E17.18086
G1 X116.179 Y80.217 E17.18206
G1 X116.172 Y79.794 E17.19615
G1 X116.205 Y80.216 E17.19653
G1 X116.205 Y80.253
G1 X116.197 Y80.737 E17.19782
G1 X116.196 Y80.772
G1 X116.141 Y81.251 E17.19986
G1 X116.134 Y81.307
G1 X116.033 Y81.779 E17.20287
G1 X116.026 Y81.812
G1 X115.865 Y82.305 E17.20711
G1 X115.86 Y82.319 E17.20743
G1 X115.648 Y82.818 E17.21285
G1 X115.637 Y82.838 E17.21322
G1 X115.366 Y83.31 E17.21952
G1 X115.343 Y83.34 E17.22015
G1 X115.026 Y83.749 E17.22733
G1 X115.005 Y83.776 E17.22816
G1 X114.672 Y84.114 E17.23647
G1 X114.609 Y84.178 E17.23889
G1 X114.272 Y84.439 E17.24877
G1 X114.234 Y84.468 E17.25012
G1 X113.851 Y84.691 E17.26277
G1 X113.777 Y84.726 E17.2652
G1 X113.421 Y84.894 E17.27773
G1 X113.392 Y84.908 E17.2788
G1 X112.904 Y85.096 E17.29622
G1 X112.386 Y85.267 E17.31439
G1 X111.835 Y85.411 E17.33336
G1 X111.311 Y85.512 E17.35114
G1 X110.831 Y85.561 E17.36721
G1 X110.383 Y85.555 E17.38213
G1 X109.917 Y85.507 E17.39774
G1 X109.406 Y85.434 E17.41493
G1 X108.91 Y85.323 E17.43186
G1 X108.423 Y85.162 E17.44895
G1 X107.936 Y84.962 E17.46648
G1 X107.401 Y84.726 E17.48596
G1 X106.89 Y84.482 E17.50483
G1 X106.394 Y84.233 E17.52331
G1 X105.936 Y83.977 E17.54079
G1 X105.478 Y83.69 E17.55879
G1 X105.01 Y83.366 E17.57775
G1 X104.16 Y82.724 E17.61324
G1 X103.294 Y82.101 E17.64877
G1 X101.955 Y81.156 E17.70336
G1 X101.518 Y80.862 E17.72091
G1 X101.069 Y80.603 E17.73818
G1 X100.615 Y80.366 E17.75523
G1 X100.118 Y80.128 E17.77359
G1 X99.579 Y79.901 E17.79307
G1 X99.031 Y79.727 E17.81222
G1 X97.502 Y79.311 E17.86501
G1 X96.984 Y79.192 E17.88271
G1 X96.45 Y79.092 E17.90081
G1 X95.89 Y79.02 E17.91962
G1 X95.336 Y78.966 E17.93816
G1 X94.795 Y78.926 E17.95623
G1 X94.253 Y78.9 E17.9743
G1 X93.699 Y78.894 E17.99276
G1 X92.904 Y78.909 E18.01924
G1 X92.431 Y78.948 E18.03505
G1 X91.851 Y78.964 E18.05438
G1 X91.719 Y78.991 E18.05887
G1 X91.524 Y79.01 E18.06539
G1 X91.255 Y79.131 E18.07522
G1 X91.021 Y79.321 E18.08526
G1 X90.9 Y79.476 E18.09181
G1 X90.776 Y79.597 E18.09758
G1 X90.61 Y79.806 E18.10647
G1 X90.371 Y80.069 E18.11831
G1 X90.059 Y80.528 E18.1368
G1 X90.349 Y81.244 E18.16253
G1 X90.471 Y81.589 E18.17472
G1 X90.591 Y81.784 E18.18235
G1 X90.633 Y81.839 E18.18465
G1 X90.737 Y82.063 E18.19288
G1 X90.975 Y82.364 E18.20566
G1 X91.243 Y82.567 E18.21686
G1 X91.458 Y82.635 E18.22437
G1 X91.631 Y82.711 E18.23066
G1 X92.689 Y82.909 E18.26652
G1 X93.417 Y83.087 E18.29148
G1 X94.238 Y83.333 E18.32003
G1 X95.157 Y83.653 E18.35245
G1 X96.025 Y83.989 E18.38345
G1 X96.856 Y84.393 E18.41423
G1 X97.607 Y84.876 E18.44397
G1 X98.321 Y85.462 E18.47474
G1 X99.038 Y86.17 E18.50831
G1 X99.685 Y86.933 E18.54163
G1 X100.18 Y87.636 E18.57027
G1 X100.516 Y88.323 E18.59574
G1 X100.69 Y89.044 E18.62045
G1 X100.759 Y89.8 E18.64574
G1 X100.77 Y90.493 E18.66882
G1 X100.73 Y91.107 E18.68932
G1 X100.655 Y91.734 E18.71035
G1 X100.336 Y93.785 E18.7795
G1 X100.134 Y95.193 E18.82688
G1 X99.906 Y96.611 E18.87472
G1 X99.742 Y97.732 E18.91246
G1 X99.68 Y98.268 E18.93043
G1 X99.639 Y98.758 E18.94681
G1 X99.639 Y99.168 E18.96047
G1 X99.684 Y99.534 E18.97275
G1 X99.78 Y99.892 E18.9851
G1 X99.933 Y100.245 E18.99791
G1 X100.141 Y100.538 E19.00988
G1 X100.543 Y100.983 E19.02986
G1 X100.814 Y101.243 E19.04237
G1 X101.132 Y101.487 E19.05572
G1 X101.466 Y101.708 E19.06906
G1 X101.815 Y101.905 E19.08241
G1 X102.188 Y102.084 E19.09619
G1 X102.592 Y102.236 E19.11057
G1 X103.018 Y102.356 E19.12531
G1 X103.454 Y102.431 E19.14005
G1 X103.624 Y102.448 E19.14574
G1 X103.876 Y102.472 E19.15417
G1 X103.9 Y102.472 E19.15497
G1 X104.289 Y102.478 E19.16793
G1 X104.334 Y102.475 E19.16943
G1 X104.717 Y102.446 E19.18223
G1 X104.772 Y102.435 E19.18409
G1 X105.158 Y102.357 E19.19721
G1 X105.58 Y102.228 E19.21191
G1 X105.969 Y102.06 E19.22602
G1 X105.981 Y102.053 E19.22649
G1 X106.342 Y101.844 E19.24038
G1 X106.351 Y101.837 E19.24076
G1 X106.69 Y101.571 E19.25512
G1 X106.704 Y101.558 E19.25575
G1 X107.007 Y101.27 E19.26968
G1 X107.019 Y101.256 E19.27029
G1 X107.29 Y100.94 E19.28416
G1 X107.327 Y100.888 E19.28628
G1 X107.548 Y100.576 E19.29902
G1 X107.584 Y100.51 E19.30152
G1 X107.772 Y100.171 E19.31444
